; generated by PrusaSlicer 2.3.0+win64 on 2021-03-17 at 23:34:13 UTC


;
;

;
;
; 

; external perimeters extrusion width = 0.40mm
; perimeters extrusion width = 0.40mm
; infill extrusion width = 0.45mm
; solid infill extrusion width = 0.45mm
; top infill extrusion width = 0.40mm
; support material extrusion width = 0.30mm
; first layer extrusion width = 0.42mm

M73 P0 R37
M201 X1250 Y1250 Z400 E5000 ; sets maximum accelerations, mm/sec^2
M203 X180 Y180 Z12 E80 ; sets maximum feedrates, mm/sec
M204 P1250 R1250 T1250 ; sets acceleration (P, T) and retract acceleration (R), mm/sec^2
M205 X8.00 Y8.00 Z2.00 E10.00 ; sets the jerk limits, mm/sec
M205 S0 T0 ; sets the minimum extruding and travel feed rate, mm/sec
M107
;TYPE:Custom
G90 ; use absolute coordinates
M83 ; extruder relative mode
M104 S170 ; set extruder temp for bed leveling
M140 S60 ; set bed temp
M109 R170 ; wait for bed leveling temp
M190 S60 ; wait for bed temp
G28 ; home all without mesh bed level
G29 ; mesh bed leveling 
M104 S215 ; set extruder temp
G92 E0.0
G1 Y-2.0 X179 F2400
G1 Z3 F720
M109 S215 ; wait for extruder temp

; intro line
G1 X170 F1000
G1 Z0.2 F720
G1 X110.0 E8.0 F900
G1 X40.0 E10.0 F700
G92 E0.0

M221 S95 ; set flow
G21 ; set units to millimeters
G90 ; use absolute coordinates
M83 ; use relative distances for extrusion
M900 K0.2 ; Filament gcode LA 1.5
; ; Filament gcode LA 1.0
;LAYER_CHANGE
;Z:0.2
;HEIGHT:0.2
;BEFORE_LAYER_CHANGE
G92 E0.0
;0.2


G1 Z0.200 F9000.000
;AFTER_LAYER_CHANGE
;0.2
G1 E-3.20000 F4200.000
G1 Z0.400 F9000.000
G1 X84.762 Y81.766
G1 Z0.200
G1 E3.20000 F2400.000
M204 S800
;TYPE:Skirt
;WIDTH:0.42
G1 F1200.000
G1 X85.467 Y81.073 E0.03102
G1 X86.384 Y80.394 E0.03578
G1 X87.252 Y79.920 E0.03102
G1 X88.768 Y79.401 E0.05022
G1 X92.083 Y78.836 E0.10544
G1 X100.142 Y79.049 E0.25277
G1 X100.801 Y79.237 E0.02148
G1 X101.403 Y79.563 E0.02148
G1 X101.920 Y80.012 E0.02148
G1 X102.327 Y80.563 E0.02148
G1 X102.627 Y81.265 E0.02393
G1 X102.748 Y82.023 E0.02406
G1 X102.740 Y92.050 E0.31439
G1 X102.590 Y92.785 E0.02352
G1 X102.268 Y93.467 E0.02366
G1 X101.794 Y94.049 E0.02352
G1 X101.193 Y94.504 E0.02366
G1 X100.424 Y94.823 E0.02610
G1 X99.593 Y94.928 E0.02624
G1 X91.924 Y94.755 E0.24052
G1 X88.940 Y94.400 E0.09423
G1 X87.406 Y93.912 E0.05048
G1 X86.094 Y93.177 E0.04713
G1 X84.847 Y92.091 E0.05187
G1 X83.880 Y90.792 E0.05077
G1 X83.366 Y89.754 E0.03632
G1 X83.051 Y88.797 E0.03157
G1 X82.846 Y87.631 E0.03714
G1 X82.813 Y86.625 E0.03156
G1 X82.944 Y85.447 E0.03714
G1 X83.195 Y84.477 E0.03143
G1 X83.573 Y83.543 E0.03160
G1 X84.166 Y82.523 E0.03697
G1 X84.725 Y81.814 E0.02832
M204 S1250
G1 X85.020 Y82.046 F9000.000
M204 S800
G1 F1200.000
G1 X85.714 Y81.358 E0.03065
G1 X86.593 Y80.708 E0.03426
G1 X87.418 Y80.259 E0.02947
G1 X88.847 Y79.770 E0.04736
G1 X92.083 Y79.213 E0.10295
G1 X100.036 Y79.414 E0.24945
G1 X100.621 Y79.571 E0.01899
G1 X101.154 Y79.850 E0.01886
G1 X101.617 Y80.240 E0.01899
G1 X101.983 Y80.723 E0.01899
G1 X102.260 Y81.356 E0.02167
G1 X102.372 Y82.042 E0.02180
G1 X102.367 Y91.989 E0.31189
G1 X102.241 Y92.640 E0.02078
G1 X101.966 Y93.238 E0.02065
G1 X101.557 Y93.754 E0.02065
G1 X101.033 Y94.160 E0.02078
G1 X100.337 Y94.456 E0.02371
G1 X99.591 Y94.551 E0.02358
G1 X91.942 Y94.378 E0.23990
G1 X89.029 Y94.033 E0.09197
G1 X87.561 Y93.569 E0.04828
G1 X86.322 Y92.877 E0.04448
G1 X85.130 Y91.841 E0.04954
G1 X84.223 Y90.633 E0.04736
G1 X83.718 Y89.616 E0.03560
M73 P1 R37
G1 X83.419 Y88.712 E0.02987
G1 X83.241 Y87.778 E0.02979
G1 X83.189 Y86.646 E0.03554
G1 X83.283 Y85.696 E0.02992
G1 X83.553 Y84.595 E0.03554
G1 X83.911 Y83.711 E0.02992
G1 X84.479 Y82.734 E0.03542
G1 X84.983 Y82.094 E0.02557
M204 S1250
G1 X85.280 Y82.328 F9000.000
M204 S800
G1 F1200.000
G1 X85.344 Y82.247 E0.00325
G1 X86.099 Y81.527 E0.03273
G1 X86.823 Y81.008 E0.02793
G1 X87.580 Y80.599 E0.02697
G1 X88.931 Y80.137 E0.04478
G1 X92.082 Y79.590 E0.10025
G1 X99.938 Y79.781 E0.24642
G1 X100.447 Y79.908 E0.01645
G1 X100.913 Y80.142 E0.01633
G1 X101.319 Y80.474 E0.01645
G1 X101.642 Y80.888 E0.01645
G1 X101.896 Y81.452 E0.01941
G1 X101.995 Y82.059 E0.01929
G1 X101.992 Y91.938 E0.30972
G1 X101.891 Y92.495 E0.01775
G1 X101.660 Y93.016 E0.01787
G1 X101.311 Y93.466 E0.01787
G1 X100.868 Y93.819 E0.01775
G1 X100.252 Y94.088 E0.02107
G1 X99.590 Y94.174 E0.02095
G1 X91.963 Y94.001 E0.23919
G1 X89.120 Y93.667 E0.08976
G1 X87.712 Y93.223 E0.04631
G1 X86.548 Y92.574 E0.04178
G1 X85.411 Y91.590 E0.04714
G1 X84.565 Y90.468 E0.04407
G1 X84.139 Y89.647 E0.02900
G1 X83.786 Y88.624 E0.03392
G1 X83.616 Y87.739 E0.02827
G1 X83.566 Y86.662 E0.03380
G1 X83.654 Y85.764 E0.02828
G1 X83.911 Y84.713 E0.03392
G1 X84.248 Y83.881 E0.02816
G1 X84.791 Y82.945 E0.03392
G1 X85.242 Y82.375 E0.02280
M204 S1250
; printing object Horse.stl id:0 copy 0
G1 E-2.24000 F4200.000
;WIPE_START
G1 F7200.000
G1 X85.344 Y82.247 E-0.09062
G1 X86.099 Y81.527 E-0.57840
G1 X86.456 Y81.272 E-0.24298
;WIPE_END
G1 E-0.04800 F4200.000
G1 Z0.400 F9000.000
G1 X92.078 Y81.967
G1 Z0.200
G1 E3.20000 F2400.000
M204 S800
;TYPE:Support material
G1 F1200.000
G1 X92.078 Y82.213 E0.00771
G1 X92.516 Y82.385 E0.01477
G1 X92.832 Y82.543 E0.01106
G1 X92.832 Y82.136 E0.01273
G1 X93.586 Y82.136 E0.02365
G1 X93.586 Y83.045 E0.02849
G1 X93.998 Y83.418 E0.01742
G1 X94.340 Y83.805 E0.01619
G1 X94.340 Y82.136 E0.05231
G1 X95.094 Y82.136 E0.02365
G1 X95.094 Y85.682 E0.11117
M204 S1250
G1 E-2.24000 F4200.000
;WIPE_START
G1 F7200.000
G1 X95.094 Y84.036 E-0.91200
;WIPE_END
G1 E-0.04800 F4200.000
G1 Z0.400 F9000.000
G1 X92.078 Y91.371
G1 Z0.200
G1 E3.20000 F2400.000
M204 S800
G1 F1200.000
G1 X92.078 Y91.627 E0.00802
G1 X92.832 Y91.627 E0.02365
G1 X92.832 Y91.221 E0.01273
G1 X93.178 Y91.016 E0.01261
G1 X93.586 Y90.718 E0.01584
G1 X93.586 Y91.627 E0.02849
G1 X94.340 Y91.627 E0.02365
G1 X94.340 Y89.959 E0.05230
G1 X94.584 Y89.626 E0.01294
G1 X94.775 Y89.317 E0.01139
G1 X94.946 Y88.988 E0.01164
G1 X95.094 Y88.639 E0.01189
G1 X95.094 Y91.627 E0.09369
G1 X95.848 Y91.627 E0.02365
G1 X95.848 Y82.136 E0.29757
G1 X96.603 Y82.136 E0.02365
G1 X96.603 Y91.627 E0.29757
G1 X97.357 Y91.627 E0.02365
G1 X97.357 Y82.136 E0.29757
M73 P1 R36
G1 X98.111 Y82.136 E0.02365
G1 X98.111 Y91.627 E0.29757
G1 X98.865 Y91.627 E0.02365
G1 X98.865 Y82.136 E0.29757
G1 X99.619 Y82.136 E0.02365
G1 X99.619 Y91.797 E0.30289
M204 S1250
G1 E-2.24000 F4200.000
;WIPE_START
G1 F7200.000
G1 X99.619 Y90.151 E-0.91200
;WIPE_END
G1 E-0.04800 F4200.000
G1 Z0.400 F9000.000
G1 X93.390 Y88.528
G1 Z0.200
G1 E3.20000 F2400.000
M204 S800
;TYPE:Perimeter
G1 F1200.000
G1 X93.191 Y88.838 E0.01156
G1 X92.953 Y89.132 E0.01184
G1 X92.794 Y89.295 E0.00715
G1 X92.501 Y89.544 E0.01205
G1 X92.292 Y89.690 E0.00799
G1 X91.986 Y89.865 E0.01104
G1 X91.647 Y90.013 E0.01160
G1 X91.287 Y90.125 E0.01184
G1 X91.063 Y90.172 E0.00715
G1 X90.679 Y90.217 E0.01212
G1 X90.451 Y90.222 E0.00716
G1 X90.066 Y90.196 E0.01212
G1 X89.840 Y90.160 E0.00715
G1 X89.475 Y90.066 E0.01184
G1 X89.130 Y89.935 E0.01156
G1 X88.801 Y89.768 E0.01156
G1 X88.494 Y89.565 E0.01156
G1 X88.204 Y89.324 E0.01181
G1 X88.034 Y89.153 E0.00755
G1 X87.762 Y88.819 E0.01350
G1 X87.619 Y88.601 E0.00818
G1 X87.480 Y88.343 E0.00918
G1 X87.330 Y87.982 E0.01226
G1 X87.216 Y87.577 E0.01319
G1 X87.171 Y87.318 E0.00826
G1 X87.144 Y86.772 E0.01712
G1 X87.205 Y86.240 E0.01681
G1 X87.315 Y85.824 E0.01346
G1 X87.520 Y85.340 E0.01650
G1 X87.737 Y84.981 E0.01315
G1 X87.997 Y84.651 E0.01315
G1 X88.378 Y84.288 E0.01650
G1 X88.728 Y84.040 E0.01346
G1 X88.948 Y83.915 E0.00795
G1 X89.333 Y83.746 E0.01315
G1 X89.735 Y83.626 E0.01315
G1 X90.263 Y83.548 E0.01674
G1 X90.555 Y83.542 E0.00918
G1 X90.955 Y83.574 E0.01257
G1 X91.206 Y83.620 E0.00799
G1 X91.618 Y83.740 E0.01346
G1 X92.121 Y83.971 E0.01735
G1 X92.458 Y84.187 E0.01257
G1 X92.666 Y84.352 E0.00830
G1 X92.858 Y84.532 E0.00826
G1 X93.140 Y84.856 E0.01346
G1 X93.425 Y85.298 E0.01650
G1 X93.600 Y85.680 E0.01315
G1 X93.726 Y86.080 E0.01315
G1 X93.813 Y86.609 E0.01682
G1 X93.824 Y86.878 E0.00846
G1 X93.804 Y87.249 E0.01165
G1 X93.743 Y87.614 E0.01158
G1 X93.640 Y87.977 E0.01184
G1 X93.417 Y88.474 E0.01710
M204 S1250
G1 X93.754 Y88.642 F9000.000
M204 S800
G1 F1200.000
G1 X93.497 Y89.060 E0.01539
G1 X93.235 Y89.383 E0.01304
G1 X93.051 Y89.571 E0.00824
G1 X92.732 Y89.843 E0.01317
G1 X92.494 Y90.009 E0.00909
G1 X92.156 Y90.202 E0.01221
G1 X91.779 Y90.367 E0.01289
G1 X91.382 Y90.490 E0.01304
G1 X91.125 Y90.544 E0.00824
G1 X90.706 Y90.593 E0.01321
G1 X90.443 Y90.600 E0.00824
G1 X90.023 Y90.571 E0.01321
G1 X89.763 Y90.530 E0.00824
G1 X89.361 Y90.426 E0.01304
G1 X88.977 Y90.281 E0.01287
G1 X88.611 Y90.094 E0.01287
G1 X88.269 Y89.868 E0.01287
G1 X87.949 Y89.603 E0.01302
G1 X87.753 Y89.406 E0.00870
G1 X87.458 Y89.043 E0.01469
G1 X87.295 Y88.795 E0.00930
G1 X87.139 Y88.506 E0.01029
G1 X86.973 Y88.106 E0.01357
G1 X86.848 Y87.661 E0.01451
G1 X86.797 Y87.367 E0.00935
G1 X86.767 Y86.760 E0.01906
G1 X86.836 Y86.162 E0.01887
G1 X86.955 Y85.710 E0.01467
G1 X87.187 Y85.161 E0.01868
G1 X87.426 Y84.766 E0.01448
G1 X87.712 Y84.403 E0.01449
G1 X88.144 Y83.992 E0.01868
G1 X88.525 Y83.721 E0.01467
G1 X88.779 Y83.577 E0.00916
G1 X89.202 Y83.392 E0.01448
G1 X89.645 Y83.259 E0.01449
G1 X90.239 Y83.171 E0.01882
G1 X90.567 Y83.165 E0.01029
G1 X91.004 Y83.200 E0.01375
G1 X91.292 Y83.253 E0.00918
G1 X91.742 Y83.383 E0.01467
G1 X92.017 Y83.494 E0.00930
G1 X92.309 Y83.643 E0.01029
G1 X92.678 Y83.880 E0.01375
G1 X92.912 Y84.066 E0.00937
G1 X93.130 Y84.270 E0.00935
G1 X93.437 Y84.623 E0.01467
G1 X93.760 Y85.124 E0.01868
G1 X93.952 Y85.544 E0.01449
G1 X94.092 Y85.984 E0.01448
G1 X94.189 Y86.578 E0.01887
G1 X94.202 Y86.881 E0.00952
G1 X94.179 Y87.291 E0.01287
G1 X94.111 Y87.696 E0.01288
G1 X93.998 Y88.096 E0.01304
G1 X93.781 Y88.588 E0.01685
M204 S1250
G1 X94.119 Y88.756 F9000.000
M204 S800
;TYPE:External perimeter
G1 F1200.000
G1 X94.047 Y88.900 E0.00507
G1 X93.803 Y89.281 E0.01418
G1 X93.517 Y89.634 E0.01424
G1 X93.309 Y89.847 E0.00933
G1 X92.962 Y90.142 E0.01428
G1 X92.696 Y90.328 E0.01019
G1 X92.325 Y90.540 E0.01338
G1 X91.911 Y90.721 E0.01418
G1 X91.477 Y90.855 E0.01424
G1 X91.186 Y90.917 E0.00933
G1 X90.733 Y90.970 E0.01430
G1 X90.435 Y90.977 E0.00933
G1 X89.980 Y90.946 E0.01430
G1 X89.686 Y90.899 E0.00933
G1 X89.247 Y90.786 E0.01424
G1 X88.824 Y90.626 E0.01418
G1 X88.421 Y90.420 E0.01418
G1 X88.044 Y90.171 E0.01418
G1 X87.695 Y89.881 E0.01423
G1 X87.473 Y89.659 E0.00985
G1 X87.153 Y89.266 E0.01589
G1 X86.971 Y88.988 E0.01042
G1 X86.798 Y88.668 E0.01139
G1 X86.616 Y88.230 E0.01487
G1 X86.480 Y87.744 E0.01582
G1 X86.423 Y87.416 E0.01044
G1 X86.393 Y87.083 E0.01050
G1 X86.390 Y86.748 E0.01050
G1 X86.415 Y86.414 E0.01050
G1 X86.466 Y86.085 E0.01044
G1 X86.595 Y85.595 E0.01588
G1 X86.712 Y85.283 E0.01044
G1 X86.855 Y84.982 E0.01044
G1 X87.116 Y84.551 E0.01582
G1 X87.428 Y84.154 E0.01582
G1 X87.659 Y83.915 E0.01044
G1 X87.910 Y83.696 E0.01044
G1 X88.322 Y83.403 E0.01588
G1 X88.610 Y83.239 E0.01037
G1 X89.072 Y83.037 E0.01582
G1 X89.556 Y82.892 E0.01582
G1 X89.883 Y82.830 E0.01044
G1 X90.215 Y82.795 E0.01049
G1 X90.578 Y82.788 E0.01139
G1 X91.053 Y82.826 E0.01494
G1 X91.379 Y82.885 E0.01038
G1 X91.865 Y83.026 E0.01588
G1 X92.173 Y83.151 E0.01042
G1 X92.497 Y83.316 E0.01139
G1 X92.898 Y83.573 E0.01494
G1 X93.159 Y83.780 E0.01044
G1 X93.402 Y84.008 E0.01044
G1 X93.734 Y84.390 E0.01588
G1 X93.926 Y84.662 E0.01044
G1 X94.095 Y84.949 E0.01044
G1 X94.305 Y85.408 E0.01582
G1 X94.457 Y85.889 E0.01582
G1 X94.525 Y86.214 E0.01044
G1 X94.566 Y86.547 E0.01050
G1 X94.579 Y86.884 E0.01058
G1 X94.554 Y87.333 E0.01409
G1 X94.480 Y87.779 E0.01418
G1 X94.356 Y88.216 E0.01424
G1 X94.146 Y88.702 E0.01660
M204 S1250
G1 X93.958 Y88.772 F9000.000
G1 E-2.24000 F4200.000
;WIPE_START
G1 F7200.000
G1 X94.047 Y88.900 E-0.12285
G1 X93.803 Y89.281 E-0.25055
G1 X93.517 Y89.634 E-0.25163
G1 X93.309 Y89.847 E-0.16494
G1 X93.141 Y89.989 E-0.12203
;WIPE_END
G1 E-0.04800 F4200.000
G1 Z0.400 F9000.000
G1 X93.368 Y85.445
G1 Z0.200
G1 E3.20000 F2400.000
M204 S800
;TYPE:Solid infill
;WIDTH:0.42473
G1 F1200.000
G1 X92.605 Y84.682 E0.03426
G1 X92.294 Y84.418 E0.01297
G1 X91.985 Y84.219 E0.01165
G1 X91.519 Y84.005 E0.01627
G1 X91.334 Y83.952 E0.00611
G1 X93.415 Y86.032 E0.09340
G1 X93.451 Y86.146 E0.00378
G1 X93.534 Y86.691 E0.01752
G1 X90.679 Y83.836 E0.12819
G1 X90.286 Y83.830 E0.01246
G1 X90.153 Y83.850 E0.00428
G1 X93.522 Y87.219 E0.15126
G1 X93.433 Y87.670 E0.01459
G1 X89.696 Y83.933 E0.16779
G1 X89.295 Y84.072 E0.01348
G1 X93.299 Y88.076 E0.17977
G1 X93.115 Y88.432 E0.01273
G1 X88.932 Y84.249 E0.18783
G1 X88.612 Y84.469 E0.01233
G1 X92.896 Y88.753 E0.19235
G1 X92.645 Y89.042 E0.01215
G1 X88.329 Y84.726 E0.19381
G1 X88.206 Y84.842 E0.00536
G1 X88.074 Y85.011 E0.00681
G1 X92.358 Y89.295 E0.19235
G1 X92.035 Y89.512 E0.01236
G1 X87.855 Y85.332 E0.18765
G1 X87.772 Y85.469 E0.00507
G1 X87.677 Y85.694 E0.00776
G1 X91.675 Y89.692 E0.17951
G1 X91.275 Y89.832 E0.01345
G1 X87.536 Y86.093 E0.16787
G1 X87.482 Y86.298 E0.00672
G1 X87.446 Y86.543 E0.00787
G1 X90.819 Y89.916 E0.15144
G1 X90.457 Y89.939 E0.01150
G1 X90.291 Y89.928 E0.00529
G1 X87.435 Y87.072 E0.12823
G1 X87.494 Y87.520 E0.01436
G1 X87.553 Y87.729 E0.00689
G1 X89.640 Y89.816 E0.09370
G1 X89.245 Y89.677 E0.01331
G1 X88.944 Y89.523 E0.01071
G1 X88.662 Y89.337 E0.01071
G1 X88.414 Y89.131 E0.01024
G1 X87.590 Y88.307 E0.03701
M204 S1250
; stop printing object Horse.stl id:0 copy 0
M106 S84.15
;LAYER_CHANGE
;Z:0.25
;HEIGHT:0.05
;BEFORE_LAYER_CHANGE
G92 E0.0
;0.25


G1 Z0.250 F9000.000
;AFTER_LAYER_CHANGE
;0.25
M104 S210 ; set temperature
G1 E-3.20000 F4200.000
G1 Z0.450 F9000.000
G1 X84.847 Y92.091
G1 Z0.250
G1 E3.20000 F2400.000
;TYPE:Skirt
;WIDTH:0.42
G1 F1723
G1 X83.880 Y90.792 E0.01378
G1 X83.366 Y89.754 E0.00986
G1 X83.051 Y88.797 E0.00857
G1 X82.846 Y87.631 E0.01008
G1 X82.813 Y86.625 E0.00856
G1 X82.944 Y85.447 E0.01008
G1 X83.195 Y84.477 E0.00853
G1 X83.573 Y83.543 E0.00858
G1 X84.166 Y82.523 E0.01003
G1 X84.762 Y81.766 E0.00819
G1 X85.467 Y81.073 E0.00842
G1 X86.384 Y80.394 E0.00971
G1 X87.252 Y79.920 E0.00842
G1 X88.768 Y79.401 E0.01363
G1 X92.083 Y78.836 E0.02861
G1 X100.142 Y79.049 E0.06859
G1 X100.801 Y79.237 E0.00583
G1 X101.403 Y79.563 E0.00583
G1 X101.920 Y80.012 E0.00583
G1 X102.327 Y80.563 E0.00583
G1 X102.627 Y81.265 E0.00649
G1 X102.748 Y82.023 E0.00653
G1 X102.740 Y92.050 E0.08531
G1 X102.590 Y92.785 E0.00638
G1 X102.268 Y93.467 E0.00642
G1 X101.794 Y94.049 E0.00638
G1 X101.193 Y94.504 E0.00642
G1 X100.424 Y94.823 E0.00708
G1 X99.593 Y94.928 E0.00712
G1 X91.924 Y94.755 E0.06526
G1 X88.940 Y94.400 E0.02557
G1 X87.406 Y93.912 E0.01370
G1 X86.094 Y93.177 E0.01279
G1 X84.892 Y92.130 E0.01356
G1 X85.137 Y91.848 F9000.000
G1 F1723
G1 X84.223 Y90.633 E0.01294
G1 X83.718 Y89.616 E0.00966
G1 X83.419 Y88.712 E0.00810
G1 X83.241 Y87.778 E0.00808
G1 X83.189 Y86.646 E0.00964
G1 X83.283 Y85.696 E0.00812
G1 X83.553 Y84.595 E0.00964
G1 X83.911 Y83.711 E0.00812
G1 X84.479 Y82.734 E0.00961
G1 X85.042 Y82.018 E0.00775
G1 X85.714 Y81.358 E0.00801
G1 X86.593 Y80.708 E0.00930
G1 X87.418 Y80.259 E0.00800
G1 X88.847 Y79.770 E0.01285
G1 X92.083 Y79.213 E0.02793
G1 X100.036 Y79.414 E0.06769
G1 X100.621 Y79.571 E0.00515
G1 X101.154 Y79.850 E0.00512
G1 X101.617 Y80.240 E0.00515
G1 X101.983 Y80.723 E0.00515
G1 X102.260 Y81.356 E0.00588
G1 X102.372 Y82.042 E0.00591
G1 X102.367 Y91.989 E0.08463
G1 X102.241 Y92.640 E0.00564
G1 X101.966 Y93.238 E0.00560
G1 X101.557 Y93.754 E0.00560
G1 X101.033 Y94.160 E0.00564
G1 X100.337 Y94.456 E0.00643
G1 X99.591 Y94.551 E0.00640
G1 X91.942 Y94.378 E0.06509
G1 X89.029 Y94.033 E0.02495
G1 X87.561 Y93.569 E0.01310
G1 X86.322 Y92.877 E0.01207
G1 X85.183 Y91.887 E0.01284
G1 X85.428 Y91.604 F9000.000
G1 F1723
G1 X84.565 Y90.468 E0.01214
M73 P2 R36
G1 X84.139 Y89.647 E0.00787
G1 X83.786 Y88.624 E0.00920
G1 X83.616 Y87.739 E0.00767
G1 X83.566 Y86.662 E0.00917
G1 X83.654 Y85.764 E0.00767
G1 X83.911 Y84.713 E0.00920
G1 X84.248 Y83.881 E0.00764
G1 X84.791 Y82.945 E0.00920
G1 X85.344 Y82.247 E0.00758
G1 X86.099 Y81.527 E0.00888
G1 X86.823 Y81.008 E0.00758
G1 X87.580 Y80.599 E0.00732
G1 X88.931 Y80.137 E0.01215
