; generated by PrusaSlicer 2.3.0+win64 on 2021-03-18 at 20:12:41 UTC


;
;

;
;
; 

; external perimeters extrusion width = 0.40mm
; perimeters extrusion width = 0.40mm
; infill extrusion width = 0.45mm
; solid infill extrusion width = 0.45mm
; top infill extrusion width = 0.40mm
; first layer extrusion width = 0.42mm

M73 P0 R42
M201 X1250 Y1250 Z400 E5000 ; sets maximum accelerations, mm/sec^2
M203 X180 Y180 Z12 E80 ; sets maximum feedrates, mm/sec
M204 P1250 R1250 T1250 ; sets acceleration (P, T) and retract acceleration (R), mm/sec^2
M205 X8.00 Y8.00 Z2.00 E10.00 ; sets the jerk limits, mm/sec
M205 S0 T0 ; sets the minimum extruding and travel feed rate, mm/sec
M107
;TYPE:Custom
G90 ; use absolute coordinates
M83 ; extruder relative mode
M104 S170 ; set extruder temp for bed leveling
M140 S60 ; set bed temp
M109 R170 ; wait for bed leveling temp
M190 S60 ; wait for bed temp
G28 ; home all without mesh bed level
G29 ; mesh bed leveling 
M104 S215 ; set extruder temp
G92 E0.0
G1 Y-2.0 X179 F2400
G1 Z3 F720
M109 S215 ; wait for extruder temp

; intro line
G1 X170 F1000
G1 Z0.2 F720
G1 X110.0 E8.0 F900
G1 X40.0 E10.0 F700
G92 E0.0

M221 S95 ; set flow
G21 ; set units to millimeters
G90 ; use absolute coordinates
M83 ; use relative distances for extrusion
M900 K0.2 ; Filament gcode LA 1.5
; ; Filament gcode LA 1.0
;LAYER_CHANGE
;Z:0.2
;HEIGHT:0.2
;BEFORE_LAYER_CHANGE
G92 E0.0
;0.2


G1 Z0.200 F9000.000
;AFTER_LAYER_CHANGE
;0.2
G1 E-3.20000 F4200.000
G1 Z0.400 F9000.000
G1 X84.296 Y84.102
G1 Z0.200
G1 E3.20000 F2400.000
M204 S800
;TYPE:Skirt
;WIDTH:0.42
G1 F1200.000
G1 X85.434 Y83.183 E0.04587
G1 X86.902 Y82.402 E0.05212
G1 X88.456 Y81.941 E0.05081
G1 X90.088 Y81.795 E0.05138
G1 X91.735 Y81.981 E0.05198
G1 X93.128 Y82.414 E0.04573
G1 X94.567 Y83.183 E0.05116
G1 X95.847 Y84.243 E0.05212
G1 X96.890 Y85.544 E0.05225
G1 X97.634 Y86.991 E0.05103
G1 X98.046 Y88.391 E0.04573
G1 X98.205 Y90.037 E0.05185
G1 X98.017 Y91.746 E0.05391
G1 X97.544 Y93.228 E0.04879
G1 X96.796 Y94.598 E0.04893
G1 X95.696 Y95.905 E0.05358
G1 X94.475 Y96.877 E0.04893
G1 X93.096 Y97.598 E0.04879
G1 X91.451 Y98.076 E0.05371
G1 X89.905 Y98.205 E0.04866
G1 X88.353 Y98.038 E0.04893
G1 X86.728 Y97.524 E0.05344
G1 X85.366 Y96.771 E0.04879
G1 X84.186 Y95.790 E0.04811
G1 X83.145 Y94.509 E0.05178
G1 X82.388 Y93.063 E0.05116
G1 X81.927 Y91.466 E0.05212
G1 X81.795 Y90.009 E0.04587
G1 X81.955 Y88.389 E0.05103
G1 X82.444 Y86.801 E0.05212
G1 X83.247 Y85.340 E0.05226
G1 X84.258 Y84.148 E0.04901
M204 S1250
G1 X84.544 Y84.391 F9000.000
M204 S800
G1 F1200.000
G1 X85.645 Y83.496 E0.04449
G1 X87.040 Y82.753 E0.04954
G1 X88.526 Y82.312 E0.04861
G1 X90.088 Y82.172 E0.04918
G1 X91.660 Y82.350 E0.04960
G1 X92.979 Y82.761 E0.04332
G1 X94.357 Y83.496 E0.04896
G1 X95.578 Y84.508 E0.04973
G1 X96.573 Y85.748 E0.04986
G1 X97.284 Y87.134 E0.04884
G1 X97.675 Y88.459 E0.04332
G1 X97.828 Y90.030 E0.04949
G1 X97.648 Y91.669 E0.05171
G1 X97.196 Y93.083 E0.04652
G1 X96.484 Y94.385 E0.04652
G1 X95.431 Y95.637 E0.05129
G1 X94.270 Y96.561 E0.04653
G1 X92.955 Y97.248 E0.04652
G1 X91.380 Y97.705 E0.05142
G1 X89.906 Y97.827 E0.04640
G1 X88.430 Y97.669 E0.04652
G1 X86.871 Y97.175 E0.05129
G1 X85.576 Y96.458 E0.04640
G1 X84.454 Y95.525 E0.04576
G1 X83.458 Y94.298 E0.04955
G1 X82.736 Y92.918 E0.04884
G1 X82.297 Y91.394 E0.04973
G1 X82.172 Y90.008 E0.04363
G1 X82.324 Y88.464 E0.04865
G1 X82.793 Y86.944 E0.04986
G1 X83.557 Y85.554 E0.04973
G1 X84.505 Y84.437 E0.04595
M204 S1250
G1 X84.792 Y84.680 F9000.000
M204 S800
G1 F1200.000
G1 X85.849 Y83.813 E0.04287
G1 X87.181 Y83.103 E0.04734
G1 X88.596 Y82.682 E0.04628
G1 X90.089 Y82.549 E0.04698
G1 X91.585 Y82.720 E0.04722
G1 X92.835 Y83.109 E0.04104
G1 X94.147 Y83.809 E0.04663
G1 X95.312 Y84.775 E0.04746
G1 X96.259 Y85.957 E0.04746
G1 X96.935 Y87.277 E0.04651
G1 X97.305 Y88.532 E0.04104
G1 X97.451 Y90.028 E0.04712
G1 X97.279 Y91.593 E0.04938
G1 X96.849 Y92.934 E0.04413
G1 X96.175 Y94.169 E0.04413
G1 X95.167 Y95.368 E0.04912
G1 X94.065 Y96.245 E0.04413
G1 X92.818 Y96.897 E0.04413
G1 X91.313 Y97.334 E0.04912
G1 X89.911 Y97.450 E0.04413
G1 X88.511 Y97.300 E0.04413
G1 X87.021 Y96.829 E0.04901
G1 X85.789 Y96.147 E0.04413
G1 X84.722 Y95.259 E0.04354
G1 X83.773 Y94.091 E0.04719
G1 X83.084 Y92.773 E0.04663
G1 X82.667 Y91.318 E0.04746
G1 X82.549 Y90.012 E0.04110
G1 X82.694 Y88.538 E0.04645
G1 X83.140 Y87.091 E0.04746
G1 X83.870 Y85.765 E0.04746
G1 X84.753 Y84.726 E0.04276
M204 S1250
; printing object Queen.stl id:0 copy 0
G1 E-2.24000 F4200.000
;WIPE_START
G1 F7200.000
G1 X85.849 Y83.813 E-0.79048
G1 X86.042 Y83.710 E-0.12152
;WIPE_END
G1 E-0.04800 F4200.000
G1 Z0.400 F9000.000
G1 X87.320 Y87.184
G1 Z0.200
G1 E3.20000 F2400.000
M204 S800
;TYPE:Perimeter
G1 F1200.000
G1 X87.692 Y86.871 E0.01526
G1 X87.947 Y86.698 E0.00966
G1 X88.215 Y86.546 E0.00966
G1 X88.661 Y86.350 E0.01526
G1 X89.127 Y86.211 E0.01526
G1 X89.430 Y86.153 E0.00966
G1 X89.744 Y86.120 E0.00993
G1 X90.072 Y86.113 E0.01029
G1 X90.548 Y86.151 E0.01496
G1 X90.852 Y86.206 E0.00968
G1 X91.150 Y86.286 E0.00966
G1 X91.614 Y86.462 E0.01557
G1 X91.889 Y86.601 E0.00966
G1 X92.152 Y86.762 E0.00966
G1 X92.547 Y87.062 E0.01557
G1 X92.765 Y87.266 E0.00935
G1 X93.091 Y87.641 E0.01557
G1 X93.262 Y87.885 E0.00935
G1 X93.505 Y88.318 E0.01557
G1 X93.628 Y88.600 E0.00966
G1 X93.727 Y88.892 E0.00966
G1 X93.838 Y89.376 E0.01557
G1 X93.876 Y89.682 E0.00966
G1 X93.888 Y89.993 E0.00976
G1 X93.864 Y90.428 E0.01367
G1 X93.792 Y90.860 E0.01374
G1 X93.724 Y91.120 E0.00842
G1 X93.573 Y91.532 E0.01374
G1 X93.383 Y91.916 E0.01346
G1 X93.151 Y92.277 E0.01346
G1 X92.875 Y92.618 E0.01374
G1 X92.688 Y92.810 E0.00842
G1 X92.347 Y93.100 E0.01401
G1 X92.128 Y93.254 E0.00842
G1 X91.742 Y93.476 E0.01397
G1 X91.481 Y93.595 E0.00898
G1 X91.084 Y93.734 E0.01319
G1 X90.665 Y93.830 E0.01348
G1 X90.230 Y93.881 E0.01374
G1 X89.952 Y93.888 E0.00870
G1 X89.675 Y93.875 E0.00870
G1 X89.242 Y93.813 E0.01374
G1 X88.826 Y93.706 E0.01346
G1 X88.425 Y93.554 E0.01346
G1 X88.042 Y93.359 E0.01346
G1 X87.684 Y93.123 E0.01346
G1 X87.348 Y92.843 E0.01370
G1 X87.148 Y92.642 E0.00889
G1 X86.834 Y92.257 E0.01560
G1 X86.665 Y91.999 E0.00966
G1 X86.513 Y91.720 E0.00997
G1 X86.384 Y91.430 E0.00993
G1 X86.277 Y91.120 E0.01029
G1 X86.168 Y90.656 E0.01496
G1 X86.129 Y90.359 E0.00937
G1 X86.115 Y89.873 E0.01526
G1 X86.160 Y89.388 E0.01526
G1 X86.221 Y89.086 E0.00966
M73 P1 R42
G1 X86.307 Y88.782 E0.00993
G1 X86.424 Y88.475 E0.01029
G1 X86.637 Y88.048 E0.01496
G1 X86.803 Y87.787 E0.00968
G1 X86.988 Y87.541 E0.00966
G1 X87.279 Y87.228 E0.01338
M204 S1250
G1 X87.002 Y86.972 F9000.000
M204 S800
G1 F1200.000
G1 X87.464 Y86.570 E0.01918
G1 X87.747 Y86.377 E0.01075
G1 X88.046 Y86.208 E0.01075
G1 X88.530 Y85.996 E0.01659
G1 X89.037 Y85.844 E0.01659
G1 X89.374 Y85.780 E0.01075
G1 X89.720 Y85.743 E0.01091
G1 X90.083 Y85.735 E0.01139
G1 X90.597 Y85.776 E0.01616
G1 X90.935 Y85.838 E0.01076
G1 X91.266 Y85.926 E0.01075
G1 X91.766 Y86.117 E0.01678
G1 X92.072 Y86.271 E0.01075
G1 X92.365 Y86.450 E0.01075
G1 X92.791 Y86.774 E0.01678
G1 X93.037 Y87.004 E0.01056
G1 X93.388 Y87.408 E0.01678
G1 X93.582 Y87.683 E0.01056
G1 X93.844 Y88.150 E0.01678
G1 X93.980 Y88.465 E0.01075
G1 X94.090 Y88.789 E0.01075
G1 X94.210 Y89.311 E0.01678
G1 X94.252 Y89.651 E0.01075
G1 X94.266 Y89.996 E0.01081
G1 X94.240 Y90.470 E0.01489
G1 X94.161 Y90.940 E0.01493
G1 X94.084 Y91.233 E0.00951
G1 X93.921 Y91.680 E0.01493
G1 X93.711 Y92.102 E0.01476
G1 X93.457 Y92.499 E0.01476
G1 X93.157 Y92.869 E0.01493
G1 X92.945 Y93.086 E0.00951
G1 X92.579 Y93.398 E0.01510
G1 X92.331 Y93.573 E0.00951
G1 X91.914 Y93.812 E0.01508
G1 X91.621 Y93.945 E0.01008
G1 X91.189 Y94.096 E0.01437
G1 X90.729 Y94.203 E0.01478
G1 X90.256 Y94.258 E0.01493
G1 X89.948 Y94.266 E0.00968
G1 X89.639 Y94.250 E0.00968
G1 X89.168 Y94.183 E0.01493
G1 X88.712 Y94.066 E0.01476
G1 X88.272 Y93.899 E0.01476
G1 X87.852 Y93.685 E0.01476
G1 X87.459 Y93.426 E0.01476
G1 X87.093 Y93.122 E0.01491
G1 X86.867 Y92.895 E0.01003
G1 X86.529 Y92.480 E0.01680
G1 X86.341 Y92.193 E0.01075
G1 X86.174 Y91.887 E0.01094
G1 X86.033 Y91.568 E0.01091
G1 X85.915 Y91.225 E0.01139
G1 X85.796 Y90.724 E0.01616
G1 X85.752 Y90.389 E0.01058
G1 X85.737 Y89.860 E0.01659
G1 X85.787 Y89.334 E0.01659
G1 X85.854 Y88.997 E0.01075
G1 X85.949 Y88.663 E0.01091
G1 X86.078 Y88.323 E0.01139
G1 X86.309 Y87.862 E0.01616
G1 X86.492 Y87.572 E0.01076
G1 X86.699 Y87.298 E0.01075
G1 X86.962 Y87.016 E0.01210
M204 S1250
G1 X86.685 Y86.759 F9000.000
M204 S800
;TYPE:External perimeter
G1 F1200.000
G1 X86.799 Y86.637 E0.00522
G1 X87.236 Y86.269 E0.01792
G1 X87.548 Y86.057 E0.01184
G1 X87.877 Y85.871 E0.01184
G1 X88.400 Y85.641 E0.01792
G1 X88.948 Y85.477 E0.01792
G1 X89.319 Y85.407 E0.01184
G1 X89.696 Y85.367 E0.01190
G1 X90.094 Y85.358 E0.01249
G1 X90.646 Y85.402 E0.01735
G1 X91.017 Y85.469 E0.01184
G1 X91.382 Y85.567 E0.01184
G1 X91.918 Y85.771 E0.01799
G1 X92.256 Y85.941 E0.01184
G1 X92.578 Y86.138 E0.01184
G1 X93.035 Y86.485 E0.01799
G1 X93.309 Y86.742 E0.01177
G1 X93.685 Y87.175 E0.01799
G1 X93.901 Y87.482 E0.01177
G1 X94.182 Y87.982 E0.01799
G1 X94.332 Y88.329 E0.01184
G1 X94.454 Y88.686 E0.01184
G1 X94.582 Y89.246 E0.01799
G1 X94.628 Y89.620 E0.01184
G1 X94.643 Y89.999 E0.01187
G1 X94.615 Y90.512 E0.01611
G1 X94.530 Y91.019 E0.01613
G1 X94.444 Y91.346 E0.01060
G1 X94.268 Y91.829 E0.01613
G1 X94.040 Y92.288 E0.01607
G1 X93.763 Y92.720 E0.01607
G1 X93.439 Y93.120 E0.01613
G1 X93.203 Y93.361 E0.01060
G1 X92.810 Y93.696 E0.01619
G1 X92.534 Y93.891 E0.01060
G1 X92.086 Y94.148 E0.01618
G1 X91.762 Y94.296 E0.01118
G1 X91.293 Y94.459 E0.01555
G1 X90.794 Y94.575 E0.01608
G1 X90.283 Y94.634 E0.01613
G1 X89.943 Y94.643 E0.01066
G1 X89.604 Y94.626 E0.01066
G1 X89.094 Y94.554 E0.01613
G1 X88.598 Y94.426 E0.01607
G1 X88.118 Y94.245 E0.01607
G1 X87.662 Y94.011 E0.01607
G1 X87.234 Y93.729 E0.01607
G1 X86.839 Y93.401 E0.01612
G1 X86.587 Y93.148 E0.01118
G1 X86.225 Y92.703 E0.01800
G1 X86.017 Y92.387 E0.01184
G1 X85.836 Y92.054 E0.01191
G1 X85.682 Y91.707 E0.01190
G1 X85.552 Y91.330 E0.01249
G1 X85.425 Y90.792 E0.01735
G1 X85.376 Y90.419 E0.01178
G1 X85.360 Y89.848 E0.01792
G1 X85.413 Y89.279 E0.01792
G1 X85.487 Y88.909 E0.01184
G1 X85.591 Y88.544 E0.01190
G1 X85.732 Y88.171 E0.01249
G1 X85.980 Y87.677 E0.01735
G1 X86.182 Y87.357 E0.01184
G1 X86.409 Y87.056 E0.01184
G1 X86.644 Y86.803 E0.01083
M204 S1250
G1 X86.848 Y86.793 F9000.000
G1 E-2.24000 F4200.000
;WIPE_START
G1 F7200.000
G1 X86.799 Y86.637 E-0.12543
G1 X87.236 Y86.269 E-0.31676
G1 X87.548 Y86.057 E-0.20927
G1 X87.877 Y85.871 E-0.20926
G1 X87.961 Y85.833 E-0.05129
;WIPE_END
G1 E-0.04800 F4200.000
G1 Z0.400 F9000.000
G1 X91.759 Y86.662
G1 Z0.200
G1 E3.20000 F2400.000
M204 S800
;TYPE:Solid infill
;WIDTH:0.422188
G1 F1200.000
G1 X92.570 Y87.473 E0.03614
G1 X92.868 Y87.815 E0.01432
G1 X93.023 Y88.036 E0.00849
G1 X93.252 Y88.443 E0.01475
G1 X93.416 Y88.855 E0.01398
G1 X91.148 Y86.588 E0.10113
G1 X90.790 Y86.482 E0.01178
G1 X90.451 Y86.426 E0.01084
G1 X93.574 Y89.550 E0.13931
G1 X93.599 Y90.111 E0.01770
G1 X89.888 Y86.400 E0.16551
G1 X89.399 Y86.447 E0.01549
G1 X93.549 Y90.598 E0.18511
G1 X93.453 Y91.037 E0.01420
G1 X88.969 Y86.553 E0.19998
G1 X88.758 Y86.616 E0.00693
G1 X88.575 Y86.697 E0.00629
G1 X93.308 Y91.430 E0.21109
G1 X93.130 Y91.787 E0.01261
G1 X88.214 Y86.871 E0.21924
G1 X87.887 Y87.081 E0.01225
G1 X92.920 Y92.114 E0.22447
G1 X92.680 Y92.410 E0.01203
G1 X87.593 Y87.324 E0.22684
G1 X87.326 Y87.593 E0.01196
G1 X92.409 Y92.676 E0.22670
G1 X92.115 Y92.918 E0.01202
G1 X87.083 Y87.886 E0.22443
G1 X86.872 Y88.211 E0.01223
G1 X91.786 Y93.125 E0.21914
G1 X91.431 Y93.307 E0.01256
G1 X86.693 Y88.569 E0.21131
G1 X86.550 Y88.962 E0.01320
G1 X91.038 Y93.450 E0.20016
G1 X90.604 Y93.553 E0.01405
G1 X86.447 Y89.396 E0.18540
G1 X86.398 Y89.883 E0.01544
G1 X90.112 Y93.597 E0.16566
G1 X89.697 Y93.592 E0.01310
G1 X89.550 Y93.571 E0.00468
G1 X86.425 Y90.446 E0.13936
G1 X86.446 Y90.604 E0.00503
G1 X86.584 Y91.141 E0.01747
G1 X88.859 Y93.416 E0.10146
G1 X88.539 Y93.295 E0.01077
G1 X88.185 Y93.114 E0.01255
G1 X87.853 Y92.895 E0.01255
G1 X87.548 Y92.641 E0.01252
G1 X86.660 Y91.754 E0.03958
M204 S1250
; stop printing object Queen.stl id:0 copy 0
M106 S84.15
;LAYER_CHANGE
;Z:0.25
;HEIGHT:0.05
;BEFORE_LAYER_CHANGE
G92 E0.0
;0.25


G1 Z0.250 F9000.000
;AFTER_LAYER_CHANGE
;0.25
M104 S210 ; set temperature
G1 E-3.20000 F4200.000
G1 Z0.450 F9000.000
G1 X82.388 Y93.063
G1 Z0.250
G1 E3.20000 F2400.000
;TYPE:Skirt
;WIDTH:0.42
G1 F1907
G1 X81.927 Y91.466 E0.01414
G1 X81.795 Y90.009 E0.01245
G1 X81.955 Y88.389 E0.01385
G1 X82.444 Y86.801 E0.01414
G1 X83.247 Y85.340 E0.01418
G1 X84.296 Y84.102 E0.01381
G1 X85.434 Y83.183 E0.01245
G1 X86.902 Y82.402 E0.01414
G1 X88.456 Y81.941 E0.01379
G1 X90.088 Y81.795 E0.01394
G1 X91.735 Y81.981 E0.01410
G1 X93.128 Y82.414 E0.01241
G1 X94.567 Y83.183 E0.01388
G1 X95.847 Y84.243 E0.01414
G1 X96.890 Y85.544 E0.01418
G1 X97.634 Y86.991 E0.01385
G1 X98.046 Y88.391 E0.01241
G1 X98.205 Y90.037 E0.01407
G1 X98.017 Y91.746 E0.01463
G1 X97.544 Y93.228 E0.01324
G1 X96.796 Y94.598 E0.01328
G1 X95.696 Y95.905 E0.01454
G1 X94.475 Y96.877 E0.01328
G1 X93.096 Y97.598 E0.01324
G1 X91.451 Y98.076 E0.01457
G1 X89.905 Y98.205 E0.01320
G1 X88.353 Y98.038 E0.01328
G1 X86.728 Y97.524 E0.01450
G1 X85.366 Y96.771 E0.01324
G1 X84.186 Y95.790 E0.01305
G1 X83.145 Y94.509 E0.01405
G1 X82.416 Y93.116 E0.01337
G1 X82.749 Y92.942 F9000.000
G1 F1907
G1 X82.297 Y91.394 E0.01372
G1 X82.172 Y90.008 E0.01184
G1 X82.324 Y88.464 E0.01320
G1 X82.793 Y86.944 E0.01353
G1 X83.557 Y85.554 E0.01349
G1 X84.565 Y84.367 E0.01325
G1 X85.645 Y83.496 E0.01180
G1 X87.040 Y82.753 E0.01344
G1 X88.526 Y82.312 E0.01319
G1 X90.088 Y82.172 E0.01335
G1 X91.660 Y82.350 E0.01346
G1 X92.979 Y82.761 E0.01175
G1 X94.357 Y83.496 E0.01329
G1 X95.578 Y84.508 E0.01349
G1 X96.573 Y85.748 E0.01353
G1 X97.284 Y87.134 E0.01325
G1 X97.675 Y88.459 E0.01175
G1 X97.828 Y90.030 E0.01343
G1 X97.648 Y91.669 E0.01403
G1 X97.196 Y93.083 E0.01262
G1 X96.484 Y94.385 E0.01262
G1 X95.431 Y95.637 E0.01392
G1 X94.270 Y96.561 E0.01262
G1 X92.955 Y97.248 E0.01262
G1 X91.380 Y97.705 E0.01395
G1 X89.906 Y97.827 E0.01259
G1 X88.430 Y97.669 E0.01262
G1 X86.871 Y97.175 E0.01392
G1 X85.576 Y96.458 E0.01259
G1 X84.454 Y95.525 E0.01242
G1 X83.458 Y94.298 E0.01345
G1 X82.777 Y92.995 E0.01251
G1 X83.110 Y92.821 F9000.000
G1 F1907
G1 X82.667 Y91.318 E0.01333
G1 X82.549 Y90.012 E0.01115
G1 X82.694 Y88.538 E0.01260
G1 X83.140 Y87.091 E0.01288
G1 X83.870 Y85.765 E0.01288
G1 X84.830 Y84.635 E0.01262
G1 X85.849 Y83.813 E0.01114
G1 X87.181 Y83.103 E0.01285
G1 X88.596 Y82.682 E0.01256
G1 X90.089 Y82.549 E0.01275
G1 X91.585 Y82.720 E0.01281
G1 X92.835 Y83.109 E0.01114
G1 X94.147 Y83.809 E0.01265
G1 X95.312 Y84.775 E0.01288
G1 X96.259 Y85.957 E0.01288
G1 X96.935 Y87.277 E0.01262
G1 X97.305 Y88.532 E0.01114
G1 X97.451 Y90.028 E0.01279
G1 X97.279 Y91.593 E0.01340
G1 X96.849 Y92.934 E0.01197
G1 X96.175 Y94.169 E0.01198
G1 X95.167 Y95.368 E0.01333
G1 X94.065 Y96.245 E0.01198
G1 X92.818 Y96.897 E0.01197
G1 X91.313 Y97.334 E0.01333
G1 X89.911 Y97.450 E0.01198
G1 X88.511 Y97.300 E0.01197
G1 X87.021 Y96.829 E0.01330
G1 X85.789 Y96.147 E0.01197
G1 X84.722 Y95.259 E0.01181
G1 X83.773 Y94.091 E0.01280
G1 X83.137 Y92.874 E0.01168
; printing object Queen.stl id:0 copy 0
G1 E-2.24000 F4200.000
;WIPE_START
G1 F7200.000
G1 X82.667 Y91.318 E-0.90116
G1 X82.665 Y91.298 E-0.01084
;WIPE_END
G1 E-0.04800 F4200.000
G1 Z0.450 F9000.000
G1 X86.328 Y91.811
G1 Z0.250
G1 E3.20000 F2400.000
M204 S300
;TYPE:Perimeter
;WIDTH:0.4
G1 F900.000
G1 X86.131 Y91.338 E0.00414
G1 X86.037 Y91.028 E0.00263
G1 X85.966 Y90.700 E0.00271
G1 X85.910 Y90.191 E0.00414
G1 X85.908 Y89.876 E0.00255
G1 X85.957 Y89.356 E0.00422
G1 X86.020 Y89.037 E0.00263
G1 X86.112 Y88.716 E0.00270
G1 X86.230 Y88.403 E0.00271
G1 X86.459 Y87.944 E0.00414
G1 X86.628 Y87.678 E0.00255
G1 X86.951 Y87.268 E0.00423
G1 X87.177 Y87.034 E0.00263
G1 X87.421 Y86.820 E0.00263
G1 X87.847 Y86.518 E0.00423
G1 X88.121 Y86.363 E0.00255
G1 X88.598 Y86.153 E0.00422
G1 X88.908 Y86.054 E0.00263
G1 X89.409 Y85.949 E0.00414
