; generated by PrusaSlicer 2.3.0+win64 on 2021-03-18 at 20:13:21 UTC


;
;

;
;
; 

; external perimeters extrusion width = 0.40mm
; perimeters extrusion width = 0.40mm
; infill extrusion width = 0.45mm
; solid infill extrusion width = 0.45mm
; top infill extrusion width = 0.40mm
; first layer extrusion width = 0.42mm

M73 P0 R44
M201 X1250 Y1250 Z400 E5000 ; sets maximum accelerations, mm/sec^2
M203 X180 Y180 Z12 E80 ; sets maximum feedrates, mm/sec
M204 P1250 R1250 T1250 ; sets acceleration (P, T) and retract acceleration (R), mm/sec^2
M205 X8.00 Y8.00 Z2.00 E10.00 ; sets the jerk limits, mm/sec
M205 S0 T0 ; sets the minimum extruding and travel feed rate, mm/sec
M107
;TYPE:Custom
G90 ; use absolute coordinates
M83 ; extruder relative mode
M104 S170 ; set extruder temp for bed leveling
M140 S60 ; set bed temp
M109 R170 ; wait for bed leveling temp
M190 S60 ; wait for bed temp
G28 ; home all without mesh bed level
G29 ; mesh bed leveling 
M104 S215 ; set extruder temp
G92 E0.0
G1 Y-2.0 X179 F2400
G1 Z3 F720
M109 S215 ; wait for extruder temp

; intro line
G1 X170 F1000
G1 Z0.2 F720
G1 X110.0 E8.0 F900
G1 X40.0 E10.0 F700
G92 E0.0

M221 S95 ; set flow
G21 ; set units to millimeters
G90 ; use absolute coordinates
M83 ; use relative distances for extrusion
M900 K0.2 ; Filament gcode LA 1.5
; ; Filament gcode LA 1.0
;LAYER_CHANGE
;Z:0.2
;HEIGHT:0.2
;BEFORE_LAYER_CHANGE
G92 E0.0
;0.2


G1 Z0.200 F9000.000
;AFTER_LAYER_CHANGE
;0.2
G1 E-3.20000 F4200.000
G1 Z0.400 F9000.000
G1 X84.045 Y83.832
G1 Z0.200
G1 E3.20000 F2400.000
M204 S800
;TYPE:Skirt
;WIDTH:0.42
G1 F1200.000
G1 X85.227 Y82.878 E0.04762
G1 X86.761 Y82.062 E0.05447
G1 X88.397 Y81.578 E0.05352
G1 X90.093 Y81.427 E0.05338
G1 X91.815 Y81.622 E0.05433
G1 X93.265 Y82.073 E0.04761
G1 X94.771 Y82.877 E0.05353
G1 X96.109 Y83.986 E0.05447
G1 X97.198 Y85.344 E0.05461
G1 X97.976 Y86.859 E0.05338
G1 X98.405 Y88.316 E0.04762
G1 X98.572 Y90.036 E0.05420
G1 X98.375 Y91.830 E0.05659
G1 X97.880 Y93.377 E0.05091
G1 X97.101 Y94.802 E0.05091
G1 X95.949 Y96.172 E0.05612
G1 X94.675 Y97.186 E0.05105
G1 X93.237 Y97.938 E0.05091
G1 X91.513 Y98.438 E0.05625
G1 X89.900 Y98.572 E0.05078
G1 X88.281 Y98.399 E0.05105
G1 X86.574 Y97.859 E0.05612
G1 X85.154 Y97.072 E0.05091
G1 X83.926 Y96.050 E0.05009
G1 X82.836 Y94.710 E0.05414
G1 X82.046 Y93.198 E0.05351
G1 X81.564 Y91.529 E0.05448
G1 X81.427 Y90.012 E0.04776
G1 X81.593 Y88.317 E0.05338
G1 X82.107 Y86.653 E0.05461
G1 X82.944 Y85.130 E0.05447
G1 X84.006 Y83.878 E0.05150
M204 S1250
G1 X84.293 Y84.121 F9000.000
M204 S800
G1 F1200.000
G1 X85.437 Y83.191 E0.04625
G1 X86.902 Y82.412 E0.05202
G1 X88.467 Y81.948 E0.05119
G1 X90.094 Y81.805 E0.05119
G1 X91.740 Y81.991 E0.05196
G1 X93.120 Y82.421 E0.04532
G1 X94.561 Y83.190 E0.05120
G1 X95.840 Y84.250 E0.05208
G1 X96.882 Y85.549 E0.05221
G1 X97.627 Y87.002 E0.05119
G1 X98.034 Y88.385 E0.04520
G1 X98.195 Y90.033 E0.05195
G1 X98.006 Y91.750 E0.05415
G1 X97.533 Y93.228 E0.04864
G1 X96.790 Y94.589 E0.04864
G1 X95.684 Y95.903 E0.05384
G1 X94.470 Y96.869 E0.04864
G1 X93.096 Y97.588 E0.04864
G1 X91.443 Y98.068 E0.05396
G1 X89.900 Y98.195 E0.04852
G1 X88.358 Y98.030 E0.04865
G1 X86.721 Y97.511 E0.05384
G1 X85.367 Y96.761 E0.04852
G1 X84.194 Y95.785 E0.04788
G1 X83.149 Y94.500 E0.05191
G1 X82.394 Y93.053 E0.05118
G1 X81.934 Y91.456 E0.05209
G1 X81.804 Y90.011 E0.04552
G1 X81.963 Y88.392 E0.05100
G1 X82.454 Y86.801 E0.05221
G1 X83.256 Y85.341 E0.05221
G1 X84.254 Y84.167 E0.04831
M204 S1250
G1 X84.540 Y84.410 F9000.000
M204 S800
G1 F1200.000
G1 X85.641 Y83.509 E0.04463
G1 X87.040 Y82.763 E0.04970
G1 X88.538 Y82.319 E0.04898
G1 X90.094 Y82.182 E0.04899
G1 X91.665 Y82.361 E0.04958
G1 X92.972 Y82.768 E0.04291
G1 X94.347 Y83.501 E0.04888
G1 X95.571 Y84.514 E0.04982
G1 X96.567 Y85.757 E0.04994
G1 X97.278 Y87.144 E0.04887
G1 X97.665 Y88.459 E0.04298
G1 X97.818 Y90.027 E0.04938
G1 X97.637 Y91.674 E0.05195
G1 X97.187 Y93.079 E0.04625
G1 X96.480 Y94.374 E0.04625
G1 X95.420 Y95.635 E0.05167
G1 X94.265 Y96.553 E0.04625
G1 X92.958 Y97.237 E0.04625
G1 X91.376 Y97.696 E0.05166
G1 X89.905 Y97.818 E0.04626
G1 X88.439 Y97.661 E0.04625
G1 X86.871 Y97.165 E0.05155
G1 X85.581 Y96.450 E0.04625
G1 X84.461 Y95.519 E0.04566
G1 X83.465 Y94.293 E0.04955
G1 X82.742 Y92.908 E0.04898
G1 X82.304 Y91.381 E0.04982
G1 X82.181 Y90.015 E0.04299
G1 X82.333 Y88.466 E0.04880
G1 X82.801 Y86.948 E0.04982
G1 X83.566 Y85.556 E0.04982
G1 X84.501 Y84.456 E0.04525
M204 S1250
; printing object Rook.stl id:0 copy 0
G1 E-2.24000 F4200.000
;WIPE_START
G1 F7200.000
G1 X85.641 Y83.509 E-0.82160
M73 P0 R43
G1 X85.785 Y83.432 E-0.09040
;WIPE_END
G1 E-0.04800 F4200.000
G1 Z0.400 F9000.000
G1 X87.054 Y86.926
G1 Z0.200
G1 E3.20000 F2400.000
M204 S800
;TYPE:Perimeter
G1 F1200.000
G1 X87.444 Y86.596 E0.01604
G1 X87.745 Y86.389 E0.01147
G1 X88.220 Y86.132 E0.01691
G1 X88.523 Y86.007 E0.01030
G1 X89.042 Y85.851 E0.01699
G1 X89.376 Y85.788 E0.01064
G1 X89.712 Y85.752 E0.01062
G1 X90.218 Y85.749 E0.01586
G1 X90.592 Y85.784 E0.01178
G1 X90.932 Y85.845 E0.01084
G1 X91.259 Y85.933 E0.01061
G1 X91.756 Y86.122 E0.01668
G1 X92.227 Y86.371 E0.01668
G1 X92.508 Y86.559 E0.01061
G1 X92.773 Y86.770 E0.01062
G1 X93.161 Y87.148 E0.01698
G1 X93.371 Y87.400 E0.01030
G1 X93.674 Y87.850 E0.01699
G1 X93.834 Y88.148 E0.01061
G1 X93.969 Y88.460 E0.01065
G1 X94.123 Y88.941 E0.01586
G1 X94.201 Y89.309 E0.01178
G1 X94.242 Y89.643 E0.01056
G1 X94.254 Y90.160 E0.01620
G1 X94.214 Y90.602 E0.01394
G1 X94.153 Y90.935 E0.01060
G1 X94.076 Y91.227 E0.00948
G1 X93.909 Y91.685 E0.01529
G1 X93.783 Y91.953 E0.00927
G1 X93.539 Y92.365 E0.01501
G1 X93.257 Y92.741 E0.01473
G1 X92.935 Y93.083 E0.01473
G1 X92.577 Y93.388 E0.01473
G1 X92.188 Y93.651 E0.01473
G1 X91.764 Y93.874 E0.01501
G1 X91.491 Y93.988 E0.00927
G1 X91.034 Y94.129 E0.01501
G1 X90.564 Y94.220 E0.01501
G1 X90.269 Y94.249 E0.00927
G1 X89.782 Y94.252 E0.01529
G1 X89.487 Y94.227 E0.00927
G1 X89.016 Y94.142 E0.01501
G1 X88.565 Y94.008 E0.01473
G1 X88.132 Y93.826 E0.01473
G1 X87.714 Y93.592 E0.01501
G1 X87.470 Y93.425 E0.00927
G1 X87.096 Y93.114 E0.01526
G1 X86.876 Y92.893 E0.00978
G1 X86.533 Y92.472 E0.01702
G1 X86.353 Y92.197 E0.01030
G1 X86.104 Y91.716 E0.01697
G1 X85.979 Y91.401 E0.01062
G1 X85.880 Y91.076 E0.01065
G1 X85.783 Y90.580 E0.01586
G1 X85.747 Y90.206 E0.01178
G1 X85.744 Y89.861 E0.01084
G1 X85.769 Y89.523 E0.01061
G1 X85.864 Y88.990 E0.01699
G1 X85.954 Y88.674 E0.01030
G1 X86.155 Y88.171 E0.01699
G1 X86.308 Y87.879 E0.01034
G1 X86.586 Y87.456 E0.01586
G1 X86.823 Y87.165 E0.01178
G1 X87.012 Y86.970 E0.00851
M204 S1250
G1 X86.741 Y86.707 F9000.000
M204 S800
G1 F1200.000
G1 X87.215 Y86.296 E0.01968
G1 X87.548 Y86.066 E0.01269
G1 X88.058 Y85.791 E0.01815
G1 X88.397 Y85.651 E0.01151
G1 X88.953 Y85.485 E0.01820
G1 X89.320 Y85.415 E0.01173
G1 X89.691 Y85.375 E0.01170
G1 X90.235 Y85.371 E0.01704
G1 X90.644 Y85.410 E0.01288
G1 X91.015 Y85.477 E0.01184
G1 X91.376 Y85.574 E0.01170
G1 X91.912 Y85.778 E0.01801
M73 P1 R43
G1 X92.420 Y86.047 E0.01801
G1 X92.730 Y86.254 E0.01170
G1 X93.023 Y86.487 E0.01171
G1 X93.438 Y86.892 E0.01819
G1 X93.673 Y87.173 E0.01151
G1 X93.997 Y87.655 E0.01820
G1 X94.173 Y87.984 E0.01170
G1 X94.322 Y88.327 E0.01172
G1 X94.488 Y88.844 E0.01704
G1 X94.573 Y89.246 E0.01288
G1 X94.619 Y89.616 E0.01167
G1 X94.631 Y90.172 E0.01746
G1 X94.588 Y90.653 E0.01513
G1 X94.522 Y91.017 E0.01159
G1 X94.437 Y91.340 E0.01049
G1 X94.258 Y91.831 E0.01638
G1 X94.116 Y92.130 E0.01036
G1 X93.853 Y92.575 E0.01621
G1 X93.546 Y92.984 E0.01604
G1 X93.195 Y93.357 E0.01604
G1 X92.806 Y93.688 E0.01604
G1 X92.382 Y93.975 E0.01604
G1 X91.925 Y94.216 E0.01621
G1 X91.620 Y94.343 E0.01036
G1 X91.126 Y94.496 E0.01621
G1 X90.618 Y94.593 E0.01621
G1 X90.289 Y94.626 E0.01036
G1 X89.767 Y94.629 E0.01638
G1 X89.438 Y94.601 E0.01036
G1 X88.929 Y94.509 E0.01621
G1 X88.438 Y94.364 E0.01604
G1 X87.967 Y94.165 E0.01604
G1 X87.515 Y93.913 E0.01621
G1 X87.243 Y93.726 E0.01036
G1 X86.841 Y93.392 E0.01636
G1 X86.595 Y93.145 E0.01093
G1 X86.229 Y92.695 E0.01822
G1 X86.027 Y92.388 E0.01151
G1 X85.760 Y91.873 E0.01818
G1 X85.623 Y91.526 E0.01171
G1 X85.514 Y91.168 E0.01172
G1 X85.409 Y90.635 E0.01704
G1 X85.370 Y90.226 E0.01288
G1 X85.367 Y89.848 E0.01184
G1 X85.394 Y89.476 E0.01170
G1 X85.496 Y88.905 E0.01820
G1 X85.597 Y88.552 E0.01151
G1 X85.812 Y88.013 E0.01820
G1 X85.983 Y87.687 E0.01153
G1 X86.282 Y87.233 E0.01704
G1 X86.541 Y86.914 E0.01288
G1 X86.699 Y86.750 E0.00714
M204 S1250
G1 X86.428 Y86.488 F9000.000
M204 S800
;TYPE:External perimeter
G1 F1200.000
G1 X86.542 Y86.371 E0.00512
G1 X86.985 Y85.996 E0.01822
G1 X87.351 Y85.744 E0.01392
G1 X87.896 Y85.450 E0.01939
G1 X88.270 Y85.295 E0.01272
G1 X88.863 Y85.118 E0.01941
G1 X89.265 Y85.041 E0.01281
G1 X89.670 Y84.998 E0.01277
G1 X90.251 Y84.994 E0.01822
G1 X90.695 Y85.036 E0.01398
G1 X91.098 Y85.109 E0.01284
G1 X91.492 Y85.215 E0.01279
G1 X92.068 Y85.434 E0.01934
G1 X92.613 Y85.723 E0.01934
G1 X92.952 Y85.949 E0.01279
G1 X93.272 Y86.203 E0.01280
G1 X93.715 Y86.635 E0.01940
G1 X93.975 Y86.947 E0.01272
G1 X94.321 Y87.460 E0.01941
G1 X94.513 Y87.820 E0.01279
G1 X94.676 Y88.194 E0.01280
G1 X94.852 Y88.748 E0.01822
G1 X94.945 Y89.184 E0.01398
G1 X94.995 Y89.588 E0.01278
G1 X95.009 Y90.185 E0.01871
G1 X94.962 Y90.704 E0.01633
G1 X94.890 Y91.099 E0.01259
G1 X94.797 Y91.453 E0.01149
G1 X94.606 Y91.977 E0.01747
G1 X94.450 Y92.307 E0.01145
G1 X94.167 Y92.785 E0.01741
G1 X93.835 Y93.227 E0.01735
G1 X93.456 Y93.630 E0.01735
G1 X93.035 Y93.989 E0.01735
G1 X92.576 Y94.299 E0.01735
G1 X92.085 Y94.558 E0.01741
G1 X91.748 Y94.698 E0.01145
G1 X91.217 Y94.862 E0.01741
G1 X90.672 Y94.967 E0.01741
G1 X90.309 Y95.003 E0.01145
G1 X89.752 Y95.006 E0.01747
G1 X89.388 Y94.975 E0.01145
G1 X88.841 Y94.877 E0.01741
G1 X88.311 Y94.719 E0.01735
G1 X87.801 Y94.504 E0.01735
G1 X87.316 Y94.234 E0.01741
G1 X87.015 Y94.027 E0.01145
G1 X86.587 Y93.671 E0.01746
G1 X86.315 Y93.398 E0.01208
G1 X85.924 Y92.918 E0.01942
G1 X85.701 Y92.579 E0.01272
G1 X85.416 Y92.030 E0.01939
G1 X85.266 Y91.650 E0.01280
G1 X85.148 Y91.259 E0.01280
G1 X85.035 Y90.689 E0.01822
G1 X84.993 Y90.245 E0.01398
G1 X84.990 Y89.836 E0.01284
G1 X85.020 Y89.429 E0.01279
G1 X85.128 Y88.820 E0.01941
G1 X85.239 Y88.430 E0.01272
G1 X85.469 Y87.855 E0.01941
G1 X85.658 Y87.495 E0.01273
G1 X85.977 Y87.010 E0.01822
G1 X86.387 Y86.531 E0.01974
M204 S1250
G1 X86.588 Y86.522 F9000.000
G1 E-2.24000 F4200.000
;WIPE_START
G1 F7200.000
G1 X86.542 Y86.371 E-0.12379
G1 X86.985 Y85.996 E-0.32200
G1 X87.351 Y85.744 E-0.24598
G1 X87.701 Y85.555 E-0.22023
;WIPE_END
G1 E-0.04800 F4200.000
G1 Z0.400 F9000.000
G1 X91.981 Y86.370
G1 Z0.200
G1 E3.20000 F2400.000
M204 S800
;TYPE:Solid infill
;WIDTH:0.421018
G1 F1200.000
G1 X92.956 Y87.344 E0.04334
G1 X93.145 Y87.570 E0.00926
G1 X93.431 Y87.996 E0.01612
G1 X93.579 Y88.271 E0.00982
G1 X93.735 Y88.658 E0.01312
G1 X91.346 Y86.269 E0.10623
G1 X90.870 Y86.122 E0.01564
G1 X90.618 Y86.076 E0.00806
G1 X93.925 Y89.383 E0.14702
G1 X93.960 Y89.664 E0.00890
G1 X93.966 Y89.959 E0.00927
G1 X90.040 Y86.033 E0.17455
G1 X89.529 Y86.056 E0.01609
G1 X93.942 Y90.469 E0.19620
G1 X93.855 Y90.917 E0.01434
G1 X89.075 Y86.137 E0.21253
G1 X88.663 Y86.260 E0.01351
G1 X93.737 Y91.333 E0.22557
G1 X93.583 Y91.714 E0.01291
G1 X88.286 Y86.418 E0.23549
G1 X87.939 Y86.605 E0.01241
G1 X93.392 Y92.058 E0.24244
G1 X93.176 Y92.377 E0.01211
G1 X87.618 Y86.819 E0.24712
G1 X87.328 Y87.064 E0.01193
G1 X92.935 Y92.670 E0.24928
G1 X92.740 Y92.878 E0.00896
G1 X92.669 Y92.939 E0.00294
G1 X87.058 Y87.328 E0.24944
G1 X86.817 Y87.621 E0.01194
G1 X92.377 Y93.182 E0.24723
G1 X92.058 Y93.398 E0.01211
G1 X86.604 Y87.943 E0.24250
G1 X86.413 Y88.287 E0.01236
G1 X91.710 Y93.584 E0.23548
G1 X91.332 Y93.741 E0.01286
G1 X86.260 Y88.669 E0.22550
G1 X86.135 Y89.079 E0.01346
G1 X90.920 Y93.863 E0.21273
G1 X90.467 Y93.945 E0.01447
G1 X86.054 Y89.533 E0.19619
G1 X86.028 Y90.041 E0.01601
G1 X89.955 Y93.968 E0.17459
G1 X89.793 Y93.969 E0.00509
G1 X89.371 Y93.918 E0.01338
G1 X86.080 Y90.628 E0.14629
G1 X86.155 Y91.008 E0.01217
G1 X86.260 Y91.342 E0.01101
G1 X88.658 Y93.740 E0.10662
G1 X88.257 Y93.571 E0.01369
G1 X87.863 Y93.352 E0.01415
G1 X87.641 Y93.199 E0.00848
G1 X87.291 Y92.908 E0.01432
G1 X86.373 Y91.990 E0.04081
M204 S1250
; stop printing object Rook.stl id:0 copy 0
M106 S84.15
;LAYER_CHANGE
;Z:0.25
;HEIGHT:0.05
;BEFORE_LAYER_CHANGE
G92 E0.0
;0.25


G1 Z0.250 F9000.000
;AFTER_LAYER_CHANGE
;0.25
M104 S210 ; set temperature
G1 E-3.20000 F4200.000
G1 Z0.450 F9000.000
G1 X82.836 Y94.710
G1 Z0.250
G1 E3.20000 F2400.000
;TYPE:Skirt
;WIDTH:0.42
G1 X82.046 Y93.198 E0.01452
G1 X81.564 Y91.529 E0.01478
G1 X81.427 Y90.012 E0.01296
G1 X81.593 Y88.317 E0.01448
G1 X82.107 Y86.653 E0.01482
G1 X82.944 Y85.130 E0.01478
G1 X84.045 Y83.832 E0.01448
G1 X85.227 Y82.878 E0.01292
G1 X86.761 Y82.062 E0.01478
G1 X88.397 Y81.578 E0.01452
G1 X90.093 Y81.427 E0.01448
G1 X91.815 Y81.622 E0.01474
G1 X93.265 Y82.073 E0.01292
G1 X94.771 Y82.877 E0.01452
G1 X96.109 Y83.986 E0.01478
G1 X97.198 Y85.344 E0.01482
G1 X97.976 Y86.859 E0.01449
G1 X98.405 Y88.316 E0.01292
G1 X98.572 Y90.036 E0.01471
G1 X98.375 Y91.830 E0.01536
G1 X97.880 Y93.377 E0.01381
G1 X97.101 Y94.802 E0.01381
G1 X95.949 Y96.172 E0.01523
G1 X94.675 Y97.186 E0.01385
G1 X93.237 Y97.938 E0.01381
G1 X91.513 Y98.438 E0.01526
G1 X89.900 Y98.572 E0.01378
G1 X88.281 Y98.399 E0.01385
G1 X86.574 Y97.859 E0.01523
G1 X85.154 Y97.072 E0.01381
G1 X83.926 Y96.050 E0.01359
G1 X82.874 Y94.757 E0.01418
G1 X83.166 Y94.520 F9000.000
G1 F2400.000
G1 X82.394 Y93.053 E0.01410
G1 X81.934 Y91.456 E0.01413
G1 X81.804 Y90.011 E0.01235
G1 X81.963 Y88.392 E0.01384
G1 X82.454 Y86.801 E0.01417
G1 X83.256 Y85.341 E0.01417
G1 X84.311 Y84.100 E0.01385
G1 X85.437 Y83.191 E0.01232
G1 X86.902 Y82.412 E0.01412
G1 X88.467 Y81.948 E0.01389
G1 X90.094 Y81.805 E0.01389
G1 X91.740 Y81.991 E0.01410
G1 X93.120 Y82.421 E0.01230
G1 X94.561 Y83.190 E0.01389
G1 X95.840 Y84.250 E0.01413
G1 X96.882 Y85.549 E0.01417
G1 X97.627 Y87.002 E0.01389
G1 X98.034 Y88.385 E0.01227
G1 X98.195 Y90.033 E0.01410
G1 X98.006 Y91.750 E0.01469
G1 X97.533 Y93.228 E0.01320
G1 X96.790 Y94.589 E0.01320
G1 X95.684 Y95.903 E0.01461
G1 X94.470 Y96.869 E0.01320
G1 X93.096 Y97.588 E0.01320
G1 X91.443 Y98.068 E0.01464
G1 X89.900 Y98.195 E0.01317
G1 X88.358 Y98.030 E0.01320
G1 X86.721 Y97.511 E0.01461
G1 X85.367 Y96.761 E0.01316
G1 X84.194 Y95.785 E0.01299
G1 X83.204 Y94.567 E0.01335
G1 X83.495 Y94.330 F9000.000
G1 F2400.000
G1 X82.742 Y92.908 E0.01369
G1 X82.304 Y91.381 E0.01352
G1 X82.181 Y90.015 E0.01166
G1 X82.333 Y88.466 E0.01324
G1 X82.801 Y86.948 E0.01352
G1 X83.566 Y85.556 E0.01352
G1 X84.576 Y84.368 E0.01326
G1 X85.641 Y83.509 E0.01165
G1 X87.040 Y82.763 E0.01348
G1 X88.538 Y82.319 E0.01329
G1 X90.094 Y82.182 E0.01329
G1 X91.665 Y82.361 E0.01345
G1 X92.972 Y82.768 E0.01164
G1 X94.347 Y83.501 E0.01326
G1 X95.571 Y84.514 E0.01352
G1 X96.567 Y85.757 E0.01355
G1 X97.278 Y87.144 E0.01326
G1 X97.665 Y88.459 E0.01166
G1 X97.818 Y90.027 E0.01340
G1 X97.637 Y91.674 E0.01410
G1 X97.187 Y93.079 E0.01255
G1 X96.480 Y94.374 E0.01255
G1 X95.420 Y95.635 E0.01402
G1 X94.265 Y96.553 E0.01255
G1 X92.958 Y97.237 E0.01255
G1 X91.376 Y97.696 E0.01402
G1 X89.905 Y97.818 E0.01255
G1 X88.439 Y97.661 E0.01255
G1 X86.871 Y97.165 E0.01399
G1 X85.581 Y96.450 E0.01255
G1 X84.461 Y95.519 E0.01239
G1 X83.533 Y94.377 E0.01253
; printing object Rook.stl id:0 copy 0
G1 E-2.24000 F4200.000
;WIPE_START
G1 F7200.000
G1 X82.752 Y92.928 E-0.91200
;WIPE_END
G1 E-0.04800 F4200.000
G1 Z0.450 F9000.000
G1 X86.333 Y92.539
G1 Z0.250
G1 E3.20000 F2400.000
M204 S300
;TYPE:Perimeter
;WIDTH:0.4
G1 F900.000
G1 X86.177 Y92.302 E0.00229
G1 X85.916 Y91.800 E0.00458
G1 X85.786 Y91.469 E0.00288
G1 X85.680 Y91.120 E0.00295
G1 X85.603 Y90.763 E0.00295
G1 X85.556 Y90.411 E0.00287
G1 X85.540 Y89.847 E0.00456
G1 X85.572 Y89.452 E0.00320
G1 X85.664 Y88.943 E0.00419
G1 X85.761 Y88.603 E0.00286
G1 X85.907 Y88.224 E0.00328
G1 X86.139 Y87.762 E0.00419
G1 X86.330 Y87.460 E0.00289
G1 X86.544 Y87.177 E0.00287
G1 X86.923 Y86.769 E0.00451
G1 X87.350 Y86.410 E0.00451
G1 X87.635 Y86.216 E0.00279
