; generated by PrusaSlicer 2.3.0+win64 on 2021-02-28 at 23:31:03 UTC


;
;

;
;
; 

; external perimeters extrusion width = 0.40mm
; perimeters extrusion width = 0.40mm
; infill extrusion width = 0.45mm
; solid infill extrusion width = 0.45mm
; top infill extrusion width = 0.40mm
; first layer extrusion width = 0.42mm

M73 P0 R5
M201 X1250 Y1250 Z400 E5000 ; sets maximum accelerations, mm/sec^2
M203 X180 Y180 Z12 E80 ; sets maximum feedrates, mm/sec
M204 P1250 R1250 T1250 ; sets acceleration (P, T) and retract acceleration (R), mm/sec^2
M205 X8.00 Y8.00 Z2.00 E10.00 ; sets the jerk limits, mm/sec
M205 S0 T0 ; sets the minimum extruding and travel feed rate, mm/sec
M107
;TYPE:Custom
G90 ; use absolute coordinates
M83 ; extruder relative mode
M104 S170 ; set extruder temp for bed leveling
M140 S60 ; set bed temp
M109 R170 ; wait for bed leveling temp
M190 S60 ; wait for bed temp
G28 ; home all without mesh bed level
G29 ; mesh bed leveling 
M104 S215 ; set extruder temp
G92 E0.0
G1 Y-2.0 X179 F2400
M73 P1 R5
G1 Z3 F720
M109 S215 ; wait for extruder temp

; intro line
G1 X170 F1000
G1 Z0.2 F720
G1 X110.0 E8.0 F900
M73 P3 R5
G1 X40.0 E10.0 F700
G92 E0.0

M221 S95 ; set flow
G21 ; set units to millimeters
G90 ; use absolute coordinates
M83 ; use relative distances for extrusion
M900 K0.2 ; Filament gcode LA 1.5
; ; Filament gcode LA 1.0
;LAYER_CHANGE
;Z:0.2
;HEIGHT:0.2
;BEFORE_LAYER_CHANGE
G92 E0.0
;0.2


M73 P4 R5
G1 Z0.200 F9000.000
;AFTER_LAYER_CHANGE
;0.2
G1 E-3.20000 F4200.000
G1 Z0.400 F9000.000
G1 X83.577 Y82.757
M73 P5 R5
G1 Z0.200
G1 E3.20000 F2400.000
M204 S800
;TYPE:Skirt
;WIDTH:0.42
G1 F1200.000
G1 X84.362 Y82.271 E0.02895
G1 X87.106 Y81.427 E0.09001
G1 X87.922 Y81.320 E0.02583
G1 X89.693 Y81.550 E0.05597
G1 X97.882 Y84.053 E0.26849
G1 X98.665 Y84.436 E0.02733
G1 X99.312 Y85.019 E0.02733
G1 X99.696 Y85.597 E0.02175
G1 X100.025 Y86.401 E0.02723
G1 X101.614 Y93.620 E0.23177
G1 X101.601 Y94.383 E0.02393
G1 X101.402 Y95.124 E0.02406
G1 X101.031 Y95.791 E0.02393
G1 X100.509 Y96.349 E0.02393
G1 X99.778 Y96.806 E0.02705
G1 X98.953 Y97.045 E0.02692
G1 X84.556 Y98.675 E0.45429
G1 X83.099 Y98.358 E0.04675
G1 X81.970 Y97.757 E0.04011
G1 X79.100 Y95.058 E0.12353
M73 P6 R5
G1 X78.671 Y94.390 E0.02488
G1 X78.424 Y93.632 E0.02502
G1 X78.376 Y92.840 E0.02488
G1 X78.529 Y92.057 E0.02502
G1 X82.965 Y83.455 E0.30345
G1 X83.537 Y82.802 E0.02721
M204 S1250
G1 X83.818 Y83.050 F9000.000
M204 S800
G1 F1200.000
G1 X84.528 Y82.610 E0.02619
G1 X87.199 Y81.792 E0.08758
G1 X87.920 Y81.697 E0.02282
G1 X89.594 Y81.914 E0.05293
G1 X97.749 Y84.406 E0.26735
G1 X98.427 Y84.730 E0.02358
G1 X98.996 Y85.229 E0.02371
G1 X99.352 Y85.753 E0.01988
G1 X99.661 Y86.500 E0.02534
G1 X101.235 Y93.619 E0.22859
G1 X101.232 Y94.294 E0.02116
G1 X101.067 Y94.944 E0.02103
G1 X100.750 Y95.535 E0.02103
G1 X100.300 Y96.032 E0.02103
G1 X99.643 Y96.453 E0.02447
G1 X98.894 Y96.673 E0.02447
G1 X84.588 Y98.299 E0.45144
G1 X83.222 Y98.002 E0.04382
G1 X82.170 Y97.437 E0.03745
M73 P7 R5
G1 X79.416 Y94.847 E0.11853
G1 X79.022 Y94.250 E0.02243
G1 X78.795 Y93.567 E0.02256
G1 X78.753 Y92.849 E0.02256
G1 X78.897 Y92.148 E0.02243
G1 X83.287 Y83.652 E0.29986
G1 X83.778 Y83.095 E0.02327
M204 S1250
G1 X84.084 Y83.316 F9000.000
M204 S800
G1 F1200.000
G1 X84.696 Y82.949 E0.02237
G1 X87.293 Y82.157 E0.08512
G1 X87.921 Y82.074 E0.01989
G1 X89.497 Y82.279 E0.04983
G1 X97.622 Y84.762 E0.26636
G1 X98.200 Y85.032 E0.02000
G1 X98.687 Y85.449 E0.02012
G1 X99.013 Y85.917 E0.01787
G1 X99.298 Y86.602 E0.02325
G1 X100.856 Y93.629 E0.22569
G1 X100.862 Y94.210 E0.01823
G1 X100.729 Y94.772 E0.01811
G1 X100.462 Y95.289 E0.01823
G1 X100.081 Y95.722 E0.01811
G1 X99.500 Y96.103 E0.02178
G1 X98.834 Y96.301 E0.02178
G1 X84.616 Y97.923 E0.44870
G1 X83.344 Y97.645 E0.04081
G1 X82.373 Y97.119 E0.03462
G1 X79.725 Y94.628 E0.11400
M73 P8 R5
G1 X79.370 Y94.103 E0.01989
G1 X79.166 Y93.498 E0.02000
G1 X79.130 Y92.865 E0.01989
G1 X79.264 Y92.241 E0.02000
G1 X83.609 Y83.848 E0.29633
G1 X84.044 Y83.361 E0.02049
M204 S1250
; printing object dog.stl id:0 copy 0
G1 E-2.24000 F4200.000
;WIPE_START
G1 F7200.000
G1 X84.696 Y82.949 E-0.42720
G1 X85.533 Y82.694 E-0.48480
;WIPE_END
G1 E-0.04800 F4200.000
G1 Z0.400 F9000.000
G1 X93.280 Y91.439
G1 Z0.200
G1 E3.20000 F2400.000
M204 S800
;TYPE:Perimeter
G1 F1200.000
G1 X94.211 Y91.260 E0.02970
G1 X93.931 Y91.994 E0.02461
G1 X93.934 Y92.270 E0.00867
G1 X93.816 Y92.285 E0.00371
G1 X92.919 Y92.154 E0.02842
G1 X90.211 Y91.451 E0.08773
G1 X89.823 Y91.257 E0.01360
G1 X88.699 Y90.938 E0.03662
G1 X88.013 Y91.012 E0.02165
G1 X86.204 Y90.542 E0.05860
G1 X86.204 Y92.611 E0.06486
G1 X86.282 Y92.769 E0.00552
G1 X86.027 Y93.390 E0.02105
G1 X85.522 Y93.642 E0.01769
G1 X85.308 Y93.257 E0.01381
G1 X85.149 Y93.146 E0.00608
G1 X85.152 Y92.895 E0.00789
G1 X85.564 Y91.750 E0.03815
G1 X85.564 Y90.417 E0.04182
G1 X85.871 Y89.385 E0.03375
G1 X86.101 Y88.742 E0.02140
G1 X86.702 Y88.067 E0.02836
G1 X86.730 Y88.015 E0.00185
G1 X87.453 Y87.916 E0.02290
G1 X87.446 Y87.957 E0.00132
G1 X88.886 Y88.531 E0.04860
G1 X89.896 Y89.211 E0.03817
G1 X90.557 Y89.410 E0.02167
G1 X91.449 Y90.003 E0.03358
G1 X91.978 Y90.307 E0.01913
G1 X92.453 Y90.405 E0.01520
G1 X93.243 Y91.393 E0.03965
M204 S1250
G1 X93.433 Y91.026 F9000.000
M204 S800
G1 F1200.000
G1 X94.383 Y90.843 E0.03036
G1 X94.908 Y90.331 E0.02298
G1 X94.988 Y90.562 E0.00766
G1 X94.603 Y91.299 E0.02605
G1 X94.309 Y92.057 E0.02550
G1 X94.315 Y92.635 E0.01814
G1 X94.072 Y92.633 E0.00763
G1 X93.812 Y92.666 E0.00819
G1 X92.845 Y92.524 E0.03067
G1 X90.078 Y91.806 E0.08962
M73 P9 R5
G1 X89.686 Y91.610 E0.01374
G1 X88.667 Y91.321 E0.03322
G1 X87.985 Y91.394 E0.02151
G1 X86.581 Y91.030 E0.04548
G1 X86.581 Y92.522 E0.04680
G1 X86.699 Y92.758 E0.00827
G1 X86.454 Y93.317 E0.01913
G1 X86.331 Y93.659 E0.01140
G1 X85.784 Y93.932 E0.01918
G1 X85.847 Y94.198 E0.00855
G1 X85.703 Y94.334 E0.00621
G1 X85.303 Y94.611 E0.01524
G1 X85.011 Y94.685 E0.00946
G1 X85.137 Y94.503 E0.00694
G1 X85.241 Y94.124 E0.01234
G1 X85.170 Y93.784 E0.01088
G1 X85.021 Y93.517 E0.00960
G1 X84.752 Y93.330 E0.01027
G1 X84.451 Y93.216 E0.01010
G1 X84.036 Y93.200 E0.01302
G1 X83.578 Y93.484 E0.01691
G1 X83.508 Y93.665 E0.00608
G1 X83.406 Y93.618 E0.00351
G1 X83.426 Y93.574 E0.00154
G1 X83.370 Y92.972 E0.01895
G1 X83.230 Y92.784 E0.00735
G1 X83.505 Y92.858 E0.00894
G1 X84.773 Y93.026 E0.04011
G1 X84.775 Y92.827 E0.00623
G1 X85.187 Y91.684 E0.03809
G1 X85.187 Y90.362 E0.04147
G1 X85.513 Y89.268 E0.03579
G1 X85.771 Y88.546 E0.02401
G1 X86.390 Y87.851 E0.02921
G1 X86.681 Y87.281 E0.02005
G1 X86.741 Y87.632 E0.01118
G1 X87.915 Y87.472 E0.03714
G1 X87.871 Y87.720 E0.00790
G1 X89.063 Y88.195 E0.04024
G1 X90.059 Y88.866 E0.03765
G1 X90.720 Y89.065 E0.02163
G1 X91.647 Y89.682 E0.03494
G1 X92.114 Y89.950 E0.01685
G1 X92.760 Y90.084 E0.02069
G1 X92.728 Y90.145 E0.00217
G1 X93.395 Y90.979 E0.03350
M204 S1250
G1 E-2.24000 F4200.000
;WIPE_START
G1 F7200.000
G1 X94.383 Y90.843 E-0.55286
G1 X94.847 Y90.391 E-0.35914
;WIPE_END
G1 E-0.04800 F4200.000
G1 Z0.400 F9000.000
G1 X84.813 Y93.918
G1 Z0.200
G1 E3.20000 F2400.000
M204 S800
;TYPE:External perimeter
G1 F1200.000
G1 X84.854 Y94.112 E0.00623
G1 X84.791 Y94.341 E0.00745
G1 X84.704 Y94.465 E0.00474
G1 X84.516 Y94.597 E0.00720
G1 X84.335 Y94.652 E0.00596
G1 X84.118 Y94.563 E0.00735
G1 X83.896 Y94.509 E0.00714
G1 X83.730 Y94.363 E0.00693
G1 X83.718 Y94.165 E0.00623
G1 X83.884 Y93.738 E0.01436
G1 X84.137 Y93.581 E0.00935
G1 X84.375 Y93.590 E0.00746
G1 X84.575 Y93.666 E0.00672
G1 X84.734 Y93.776 E0.00607
G1 X84.784 Y93.865 E0.00318
M204 S1250
G1 X85.010 Y93.944 F9000.000
G1 E-2.24000 F4200.000
;WIPE_START
G1 F7200.000
G1 X84.854 Y94.112 E-0.14213
G1 X84.791 Y94.341 E-0.13169
G1 X84.704 Y94.465 E-0.08370
G1 X84.516 Y94.597 E-0.12730
G1 X84.335 Y94.652 E-0.10527
G1 X84.118 Y94.563 E-0.12996
G1 X83.896 Y94.509 E-0.12623
G1 X83.807 Y94.431 E-0.06572
;WIPE_END
G1 E-0.04800 F4200.000
G1 Z0.400 F9000.000
G1 X88.296 Y87.484
G1 Z0.200
G1 E3.20000 F2400.000
M204 S800
G1 F1200.000
G1 X89.240 Y87.860 E0.03189
G1 X90.222 Y88.522 E0.03713
G1 X90.882 Y88.720 E0.02159
G1 X91.846 Y89.361 E0.03630
G1 X92.249 Y89.593 E0.01458
G1 X92.866 Y89.721 E0.01975
G1 X93.229 Y89.302 E0.01738
G1 X92.875 Y88.525 E0.02676
G1 X92.651 Y88.302 E0.00993
G1 X92.905 Y88.175 E0.00890
G1 X93.035 Y88.024 E0.00623
G1 X93.325 Y88.475 E0.01682
G1 X93.459 Y88.817 E0.01151
G1 X93.711 Y89.165 E0.01347
G1 X93.711 Y89.273 E0.00339
M73 P10 R5
G1 X93.401 Y89.673 E0.01587
G1 X93.176 Y90.102 E0.01520
G1 X93.585 Y90.613 E0.02051
G1 X94.201 Y90.494 E0.01968
G1 X95.014 Y89.701 E0.03561
G1 X95.370 Y89.591 E0.01167
G1 X96.016 Y89.044 E0.02656
G1 X96.096 Y88.680 E0.01167
G1 X96.210 Y88.386 E0.00988
G1 X96.210 Y87.957 E0.01347
G1 X96.436 Y87.958 E0.00708
G1 X96.622 Y87.896 E0.00616
G1 X96.490 Y88.204 E0.01050
G1 X96.490 Y88.665 E0.01446
G1 X96.390 Y89.345 E0.02156
G1 X96.050 Y89.564 E0.01266
G1 X95.748 Y89.806 E0.01215
G1 X95.674 Y89.924 E0.00435
G1 X95.220 Y90.079 E0.01506
G1 X95.397 Y90.593 E0.01704
G1 X94.945 Y91.459 E0.03065
G1 X94.686 Y92.120 E0.02224
G1 X94.693 Y92.746 E0.01962
G1 X95.415 Y92.483 E0.02410
G1 X96.093 Y92.333 E0.02175
G1 X96.994 Y92.633 E0.02978
G1 X97.324 Y92.922 E0.01378
G1 X96.732 Y92.622 E0.02081
G1 X95.636 Y92.486 E0.03464
G1 X94.799 Y92.903 E0.02932
G1 X94.432 Y93.013 E0.01201
G1 X94.094 Y93.010 E0.01062
G1 X93.808 Y93.046 E0.00901
G1 X92.770 Y92.894 E0.03292
G1 X89.945 Y92.161 E0.09151
G1 X89.549 Y91.963 E0.01387
G1 X88.634 Y91.703 E0.02981
G1 X87.957 Y91.776 E0.02137
G1 X86.958 Y91.517 E0.03235
G1 X86.958 Y92.433 E0.02873
G1 X87.115 Y92.748 E0.01102
G1 X86.804 Y93.457 E0.02426
G1 X86.635 Y93.929 E0.01574
G1 X86.219 Y94.137 E0.01456
G1 X86.263 Y94.323 E0.00599
G1 X85.941 Y94.628 E0.01392
G1 X85.462 Y94.959 E0.01827
G1 X84.718 Y95.148 E0.02406
G1 X84.225 Y95.087 E0.01557
G1 X83.830 Y94.929 E0.01335
G1 X83.610 Y94.748 E0.00894
G1 X83.610 Y94.487 E0.00818
G1 X83.295 Y93.982 E0.01866
G1 X82.816 Y93.765 E0.01647
G1 X82.944 Y93.730 E0.00414
G1 X83.041 Y93.511 E0.00754
G1 X83.004 Y93.112 E0.01254
G1 X82.577 Y92.540 E0.02238
G1 X82.429 Y92.428 E0.00582
G1 X82.900 Y92.274 E0.01551
G1 X83.197 Y92.385 E0.00993
G1 X83.579 Y92.488 E0.01242
G1 X84.400 Y92.596 E0.02597
G1 X84.402 Y92.460 E0.00426
G1 X84.506 Y92.461 E0.00328
G1 X84.810 Y91.618 E0.02809
G1 X84.810 Y90.307 E0.04113
G1 X85.154 Y89.150 E0.03783
G1 X85.440 Y88.350 E0.02663
G1 X86.078 Y87.634 E0.03007
G1 X86.307 Y87.198 E0.01545
G1 X86.495 Y86.744 E0.01541
G1 X86.527 Y86.448 E0.00934
G1 X86.630 Y86.114 E0.01096
G1 X86.505 Y85.925 E0.00710
G1 X86.716 Y85.831 E0.00726
G1 X86.972 Y85.764 E0.00828
G1 X87.026 Y85.714 E0.00232
G1 X87.082 Y85.798 E0.00318
G1 X87.043 Y86.109 E0.00982
G1 X86.938 Y86.544 E0.01405
G1 X87.051 Y87.210 E0.02116
G1 X87.978 Y87.083 E0.02932
G1 X88.009 Y86.478 E0.01901
G1 X88.122 Y85.563 E0.02890
G1 X88.286 Y85.588 E0.00520
G1 X88.535 Y85.567 E0.00786
G1 X88.671 Y85.525 E0.00445
G1 X88.790 Y85.450 E0.00442
G1 X88.723 Y85.571 E0.00435
G1 X88.671 Y85.986 E0.01312
G1 X88.531 Y86.360 E0.01251
G1 X88.422 Y86.771 E0.01333
G1 X88.306 Y87.425 E0.02082
M204 S1250
G1 X88.169 Y87.863 F9000.000
G1 E-2.24000 F4200.000
;WIPE_START
G1 F7200.000
G1 X89.240 Y87.860 E-0.57122
G1 X89.750 Y88.204 E-0.34078
;WIPE_END
G1 E-0.04800 F4200.000
G1 Z0.400 F9000.000
G1 X88.926 Y85.207
G1 Z0.200
G1 E3.20000 F2400.000
M204 S800
M73 P11 R5
G1 F1200.000
G1 X88.932 Y85.104 E0.00323
G1 X88.955 Y85.155 E0.00174
M204 S1250
G1 X89.017 Y85.159 F9000.000
G1 X88.397 Y85.768
M204 S800
;TYPE:Gap fill
;WIDTH:0.262822
G1 F1200.000
G1 X88.334 Y86.097 E0.00613
M204 S1250
M204 S800
;WIDTH:0.218705
G1 X88.290 Y86.279 E0.00274
M204 S1250
M204 S800
;WIDTH:0.174643
G1 X88.247 Y86.499 E0.00244
M204 S1250
M204 S800
;WIDTH:0.143506
G1 X88.212 Y86.723 E0.00190
M204 S1250
M204 S800
;WIDTH:0.0959168
G1 X88.206 Y86.768 E0.00020
M204 S1250
G1 X86.730 Y86.677 F9000.000
M204 S800
;WIDTH:0.122767
G1 F1200.000
G1 X86.726 Y86.557 E0.00080
M204 S1250
G1 X86.730 Y86.677 F9000.000
M204 S800
;WIDTH:0.159061
G1 F1200.000
G1 X86.722 Y87.096 E0.00405
M204 S1250
G1 E-2.24000 F4200.000
;WIPE_START
G1 F7200.000
G1 X86.730 Y86.677 E-0.23241
;WIPE_END
G1 E-0.72759 F4200.000
G1 Z0.400 F9000.000
G1 X85.912 Y90.272
G1 Z0.200
G1 E3.20000 F2400.000
M204 S800
;WIDTH:0.30552
G1 F1200.000
G1 X85.884 Y90.463 E0.00422
G1 X85.882 Y91.816 E0.02955
G1 X85.710 Y91.922 E0.00440
M204 S1250
G1 X85.485 Y92.302 F9000.000
M204 S800
;TYPE:Solid infill
;WIDTH:0.495415
G1 F1200.000
G1 X85.969 Y92.786 E0.02576
G1 X85.806 Y93.184 E0.01618
G1 X85.753 Y93.210 E0.00221
G1 X85.316 Y92.773 E0.02329
M204 S1250
G1 X85.399 Y93.851 F9000.000
M204 S800
;TYPE:Gap fill
;WIDTH:0.103008
G1 F1200.000
G1 X85.419 Y93.905 E0.00029
M204 S1250
M204 S800
;WIDTH:0.151643
G1 X85.450 Y93.933 E0.00037
M204 S1250
M204 S800
;WIDTH:0.200278
G1 X85.480 Y93.961 E0.00054
M204 S1250
M204 S800
;WIDTH:0.225757
G1 X85.500 Y93.971 E0.00034
G1 X85.530 Y94.103 E0.00206
G1 X85.426 Y94.297 E0.00334
M204 S1250
G1 X84.756 Y94.684 F9000.000
M204 S800
;WIDTH:0.120114
G1 F1200.000
G1 X84.490 Y94.930 E0.00232
M204 S1250
G1 X84.627 Y94.906 F9000.000
M204 S800
;WIDTH:0.102585
G1 F1200.000
G1 X84.314 Y94.879 E0.00156
G1 X83.913 Y94.728 E0.00212
M204 S1250
G1 E-2.24000 F4200.000
;WIPE_START
G1 F7200.000
G1 X84.314 Y94.879 E-0.23732
G1 X84.627 Y94.906 E-0.17414
;WIPE_END
G1 E-0.54853 F4200.000
G1 Z0.400 F9000.000
G1 X93.392 Y91.533
G1 Z0.200
G1 E3.20000 F2400.000
M204 S800
;TYPE:Solid infill
;WIDTH:0.428433
G1 F1200.000
G1 X93.690 Y91.831 E0.01351
G1 X93.648 Y91.975 E0.00480
G1 X93.227 Y91.913 E0.01363
G1 X91.892 Y90.578 E0.06054
G1 X91.300 Y90.244 E0.02177
G1 X90.442 Y89.673 E0.03303
G1 X92.529 Y91.760 E0.09462
G1 X91.793 Y91.569 E0.02438
G1 X89.528 Y89.304 E0.10269
G1 X88.753 Y88.782 E0.02994
G1 X88.267 Y88.588 E0.01678
G1 X91.057 Y91.378 E0.12647
G1 X90.321 Y91.187 E0.02438
G1 X87.335 Y88.217 E0.13499
G1 X86.880 Y88.292 E0.01477
G1 X89.443 Y90.855 E0.11619
G1 X88.697 Y90.654 E0.02479
G1 X86.624 Y88.581 E0.09398
G1 X86.367 Y88.869 E0.01238
G1 X88.204 Y90.707 E0.08330
M73 P12 R5
G1 X88.034 Y90.725 E0.00550
G1 X87.553 Y90.600 E0.01594
G1 X86.215 Y89.263 E0.06063
G1 X86.080 Y89.673 E0.01385
G1 X87.053 Y90.646 E0.04410
M204 S1250
G1 E-2.24000 F4200.000
;WIPE_START
G1 F7200.000
G1 X86.080 Y89.673 E-0.76238
G1 X86.165 Y89.417 E-0.14962
;WIPE_END
G1 E-0.04800 F4200.000
G1 Z0.400 F9000.000
G1 X92.992 Y89.940
G1 Z0.200
G1 E3.20000 F2400.000
M204 S800
;TYPE:Gap fill
;WIDTH:0.131935
G1 F1200.000
G1 X93.128 Y89.741 E0.00178
M204 S1250
G1 X93.480 Y89.263 F9000.000
M204 S800
;WIDTH:0.144329
G1 F1200.000
G1 X93.396 Y89.118 E0.00141
M204 S1250
M204 S800
;WIDTH:0.118825
G1 X93.312 Y88.974 E0.00106
M204 S1250
G1 E-2.24000 F4200.000
;WIPE_START
G1 F7200.000
G1 X93.396 Y89.118 E-0.09281
;WIPE_END
G1 E-0.86719 F4200.000
G1 Z0.400 F9000.000
G1 X95.956 Y89.372
G1 Z0.200
G1 E3.20000 F2400.000
M204 S800
;WIDTH:0.12595
G1 F1200.000
G1 X96.224 Y89.174 E0.00231
M204 S1250
; stop printing object dog.stl id:0 copy 0
M106 S84.15
;LAYER_CHANGE
;Z:0.25
;HEIGHT:0.05
;BEFORE_LAYER_CHANGE
G92 E0.0
;0.25


G1 Z0.250 F9000.000
;AFTER_LAYER_CHANGE
;0.25
M104 S210 ; set temperature
G1 E-3.20000 F4200.000
G1 Z0.450 F9000.000
G1 X98.665 Y84.436
G1 Z0.250
G1 E3.20000 F2400.000
;TYPE:Skirt
;WIDTH:0.42
G1 X99.312 Y85.019 E0.00741
G1 X99.696 Y85.597 E0.00590
G1 X100.025 Y86.401 E0.00739
G1 X101.614 Y93.620 E0.06289
G1 X101.601 Y94.383 E0.00649
G1 X101.402 Y95.124 E0.00653
G1 X101.031 Y95.791 E0.00649
G1 X100.509 Y96.349 E0.00649
G1 X99.778 Y96.806 E0.00734
G1 X98.953 Y97.045 E0.00730
G1 X84.556 Y98.675 E0.12327
G1 X83.099 Y98.358 E0.01268
G1 X81.970 Y97.757 E0.01088
G1 X79.100 Y95.058 E0.03352
G1 X78.671 Y94.390 E0.00675
G1 X78.424 Y93.632 E0.00679
G1 X78.376 Y92.840 E0.00675
G1 X78.529 Y92.057 E0.00679
G1 X82.965 Y83.455 E0.08234
G1 X83.577 Y82.757 E0.00789
G1 X84.362 Y82.271 E0.00786
G1 X87.106 Y81.427 E0.02442
G1 X87.922 Y81.320 E0.00701
G1 X89.693 Y81.550 E0.01519
G1 X97.882 Y84.053 E0.07285
M73 P13 R5
G1 X98.611 Y84.409 E0.00690
G1 X98.427 Y84.730 F9000.000
G1 F2400.000
G1 X98.996 Y85.229 E0.00643
